;FLAVOR:Marlin
;TIME:2409
;Filament used: 1.6498m
;Layer height: 0.12
;MINX:102.7
;MINY:91.7
;MINZ:0.2
;MAXX:132.3
;MAXY:143.3
;MAXZ:11.6
;TARGET_MACHINE.NAME:Creality Ender-3
;Generated with Cura_SteamEngine 5.11.0
M140 S60
M105
M190 S60
M104 S200
M105
M109 S200
; Ender 3 Custom Start G-code
G92 E0 ; Reset Extruder
G28 ; Home all axes
G1 Z2.0 F3000 ; Move Z Axis up little to prevent scratching of Heat Bed
G1 X0.1 Y20 Z0.3 F5000.0 ; Move to start position
G1 X0.1 Y200.0 Z0.3 F1500.0 E15 ; Draw the first line
G1 X0.4 Y200.0 Z0.3 F5000.0 ; Move to side a little
G1 X0.4 Y20 Z0.3 F1500.0 E30 ; Draw the second line
G92 E0 ; Reset Extruder
G1 Z2.0 F3000 ; Move Z Axis up little to prevent scratching of Heat Bed
G1 X5 Y20 Z0.3 F5000.0 ; Move over to prevent blob squish
M82 ;absolute extrusion mode
G92 E0
G92 E0
G1 F2700 E-5
;LAYER_COUNT:96
;LAYER:0
M107
;MESH:Bottom.stl
G0 F6000 X117.5 Y125.572 Z0.2
;TYPE:WALL-INNER
G1 F2700 E0
G1 F1200 X112.437 Y125.572 E0.1684
G1 X112.195 Y125.489 E0.17691
G1 X111.99 Y125.289 E0.18643
G1 X111.9 Y125.089 E0.19373
G1 X111.9 Y122.556 E0.27797
G1 X111.931 Y122.364 E0.28444
G1 X112.016 Y122.2 E0.29059
G1 X112.162 Y122.059 E0.29734
G1 X112.447 Y121.958 E0.30739
G1 X119.836 Y121.956 E0.55315
G1 X119.836 Y119.732 E0.62712
G1 X120.259 Y119.228 E0.64901
G1 X112.447 Y119.226 E0.90884
G1 X112.162 Y119.125 E0.91889
G1 X112.016 Y118.984 E0.92564
G1 X111.9 Y118.701 E0.93582
G1 X111.9 Y116.182 E1.0196
G1 X111.953 Y116.024 E1.02514
G1 X112.117 Y115.809 E1.03414
G1 X112.292 Y115.708 E1.04086
G1 X112.505 Y115.672 E1.04804
G1 X116.247 Y115.7 E1.1725
G1 X112.292 Y114.248 E1.31263
G1 X112.117 Y114.147 E1.31935
G1 X111.953 Y113.932 E1.32835
G1 X111.9 Y113.762 E1.33427
G1 X111.9 Y111.908 E1.39593
G1 X111.95 Y111.75 E1.40145
G1 X112.114 Y111.532 E1.41052
G1 X112.297 Y111.427 E1.41754
G1 X116.161 Y110.046 E1.55401
G1 X112.505 Y110.076 E1.67562
G1 X112.297 Y110.041 E1.68263
G1 X112.114 Y109.936 E1.68965
G1 X111.95 Y109.718 E1.69872
G1 X111.9 Y109.554 E1.70443
G1 X111.9 Y107.072 E1.78698
G1 X112.078 Y106.772 E1.79858
G1 X112.292 Y106.637 E1.807
G1 X112.485 Y106.6 E1.81353
G1 X122.515 Y106.6 E2.14713
G1 X122.708 Y106.636 E2.15366
G1 X122.922 Y106.772 E2.16209
G1 X123.1 Y107.072 E2.1737
G1 X123.1 Y110.738 E2.29563
G1 X123.03 Y110.92 E2.30211
G1 X122.86 Y111.117 E2.31077
G1 X122.701 Y111.202 E2.31677
G1 X117.838 Y112.924 E2.48835
G1 X122.701 Y114.574 E2.65915
G1 X122.86 Y114.659 E2.66515
G1 X123.03 Y114.856 E2.6738
G1 X123.1 Y115.038 E2.68029
G1 X123.1 Y118.706 E2.80229
G1 X122.982 Y118.986 E2.81239
G1 X122.596 Y119.18 E2.82676
G1 X122.982 Y119.374 E2.84113
G1 X123.1 Y119.654 E2.85124
G1 X123.1 Y127.924 E3.1263
G1 X122.922 Y128.224 E3.1379
G1 X122.708 Y128.36 E3.14633
G1 X122.515 Y128.396 E3.15286
G1 X120.358 Y128.396 E3.2246
G1 X120.06 Y128.265 E3.23543
G1 X119.922 Y128.108 E3.24238
G1 X119.836 Y127.895 E3.25002
G1 X119.836 Y125.572 E3.32729
G1 X117.5 Y125.572 E3.40498
G1 F2700 E-1.59502
G0 F6000 X117.5 Y138.688
G0 X117.5 Y138.888
G1 F2700 E3.40498
G1 F1200 X127.5 Y138.888 E3.73758
G1 X127.766 Y138.771 E3.74725
G1 X127.888 Y138.557 E3.75544
G1 X127.888 Y96.46 E5.15559
G1 X127.825 Y96.299 E5.16134
G1 X127.7 Y96.175 E5.1672
G1 X127.53 Y96.108 E5.17328
G1 X107.496 Y96.108 E5.83961
G1 X107.236 Y96.223 E5.84907
G1 X107.112 Y96.442 E5.85744
G1 X107.109 Y138.499 E7.25626
G1 X107.226 Y138.764 E7.26589
G1 X107.441 Y138.888 E7.27415
G1 X117.5 Y138.888 E7.60871
G0 F6000 X117.5 Y139.288
;TYPE:WALL-OUTER
G1 F1200 X127.561 Y139.288 E7.94334
G1 X127.859 Y139.194 E7.95374
G1 X128.068 Y139.049 E7.9622
G1 X128.251 Y138.729 E7.97446
G1 X128.288 Y138.485 E7.98267
G1 X128.288 Y96.386 E9.38288
G1 X128.176 Y96.097 E9.39319
G1 X127.9 Y95.824 E9.4061
G1 X127.606 Y95.708 E9.41662
G1 X107.435 Y95.708 E10.08751
G1 X107.139 Y95.801 E10.09783
G1 X106.932 Y95.949 E10.10629
G1 X106.749 Y96.271 E10.11861
G1 X106.712 Y96.511 E10.12669
G1 X106.709 Y138.561 E11.52527
G1 X106.802 Y138.858 E11.53563
G1 X106.95 Y139.068 E11.54417
G1 X107.271 Y139.251 E11.55646
G1 X107.511 Y139.288 E11.56454
G1 X117.5 Y139.288 E11.89677
G1 F2700 E6.89677
G0 F6000 X117.501 Y138.979
G0 X117.5 Y138.688
G0 X117.5 Y125.752
G0 X117.5 Y125.171
G1 F2700 E11.89677
G1 F1200 X112.415 Y125.17 E12.0659
G1 X112.302 Y125.007 E12.0725
G1 X112.3 Y122.556 E12.15402
G1 X112.338 Y122.437 E12.15817
G1 X112.482 Y122.356 E12.16367
G1 X120.236 Y122.356 E12.42157
G1 X120.236 Y119.732 E12.50884
G1 F1004.2 X120.388 Y119.458 E12.52129
G1 F866.4 X122.5 Y119.456 E12.61858
G1 F1008.4 X122.695 Y119.683 E12.63043
G1 F1200 X122.698 Y127.831 E12.90143
G1 X122.588 Y127.993 E12.90795
G1 X120.401 Y127.994 E12.98069
G1 X120.31 Y127.953 E12.984
G1 X120.241 Y127.842 E12.98835
G1 X120.236 Y125.172 E13.07716
G1 X117.5 Y125.171 E13.16816
G1 F2700 E8.16816
G0 F6000 X117.5 Y125.482
G0 X112.062 Y125.41
G0 X112.062 Y122.118
G0 X119.664 Y121.784
G0 X119.927 Y119.412
G0 X117.5 Y119.14
G0 X117.5 Y118.828
G1 F2700 E13.16816
G1 F1200 X112.482 Y118.828 E13.33506
G1 X112.387 Y118.794 E13.33841
G1 X112.302 Y118.663 E13.34361
G1 X112.304 Y116.229 E13.42456
G1 X112.372 Y116.117 E13.42892
G1 X112.502 Y116.072 E13.43349
G1 X118.544 Y116.118 E13.63446
G1 X112.384 Y113.855 E13.85273
G1 X112.302 Y113.719 E13.85801
G1 X112.304 Y111.95 E13.91685
G1 X112.381 Y111.821 E13.92184
G1 X118.52 Y109.627 E14.13868
G1 X112.452 Y109.676 E14.34051
G1 X112.371 Y109.63 E14.3436
G1 X112.302 Y109.511 E14.34818
G1 X112.3 Y107.161 E14.42634
G1 X112.413 Y107.003 E14.4328
G1 X122.551 Y107 E14.76999
G1 X122.641 Y107.057 E14.77354
G1 X122.7 Y107.157 E14.7774
G1 X122.698 Y110.671 E14.89427
G1 X122.609 Y110.81 E14.89976
G1 X116.617 Y112.932 E15.11119
G1 X122.608 Y114.965 E15.32161
G1 X122.7 Y115.072 E15.3263
G1 X122.695 Y118.677 E15.4462
G1 F1008.4 X122.5 Y118.904 E15.45805
G1 F866.4 X120.34 Y118.906 E15.55755
G1 F1004.2 X119.332 Y118.828 E15.59773
G1 F1200 X117.5 Y118.828 E15.65867
G1 F2700 E10.65867
G0 F6000 X117.5 Y119.14
G0 X119.927 Y119.412
G0 X119.664 Y121.784
G0 X112.062 Y122.118
G0 X112.062 Y125.41
G0 X117.5 Y125.752
G0 X117.5 Y138.688
G0 X117.5 Y138.528
;TYPE:SKIN
G1 F2700 E15.65867
G1 F1200 X107.538 Y138.528 E15.99
G1 X107.468 Y138.438 E15.9938
G1 X107.472 Y96.536 E17.38746
G1 X107.509 Y96.468 E17.39004
G1 X127.485 Y96.469 E18.05444
G1 X127.528 Y96.54 E18.0572
G1 X127.528 Y138.461 E19.4515
G1 X127.438 Y138.528 E19.45523
G1 X117.5 Y138.528 E19.78577
G1 F2700 E14.78577
G0 F6000 X117.5 Y138.788
G0 X117.5 Y125.752
G0 X117.5 Y125.931
G1 F2700 E19.78577
G1 F1200 X119.476 Y125.932 E19.85149
G1 X119.479 Y127.827 E19.91452
G1 X119.556 Y128.181 E19.92657
G1 X119.831 Y128.549 E19.94185
G1 X120.28 Y128.749 E19.9582
G1 X122.56 Y128.753 E20.03403
G1 X122.833 Y128.695 E20.04331
G1 X123.179 Y128.473 E20.05699
G1 X123.401 Y128.106 E20.07125
G1 X123.458 Y127.818 E20.08102
G1 X123.46 Y119.592 E20.35462
G1 X123.282 Y119.179 E20.36957
G1 X123.458 Y118.755 E20.38484
G1 X123.46 Y114.97 E20.51073
G1 X123.347 Y114.675 E20.52124
G1 X123.086 Y114.375 E20.53447
G1 X122.819 Y114.235 E20.54449
G1 X118.937 Y112.916 E20.68086
G1 X122.843 Y111.531 E20.8187
G1 X123.086 Y111.397 E20.82793
G1 X123.347 Y111.096 E20.84118
G1 X123.458 Y110.799 E20.85172
G1 X123.458 Y107.174 E20.97229
G1 X123.426 Y106.962 E20.97942
G1 X123.32 Y106.691 E20.9891
G1 X123.006 Y106.386 E21.00366
G1 X122.623 Y106.242 E21.01727
G1 X112.444 Y106.243 E21.35582
G1 X112.127 Y106.316 E21.36664
G1 X111.821 Y106.519 E21.37886
G1 X111.596 Y106.885 E21.39315
G1 X111.541 Y107.178 E21.40306
G1 X111.543 Y109.611 E21.48398
G1 X111.625 Y109.874 E21.49315
G1 X111.885 Y110.215 E21.50741
G1 X112.176 Y110.377 E21.51849
G1 X112.472 Y110.433 E21.52851
G1 X114.038 Y110.423 E21.58059
G1 X112.176 Y111.083 E21.6463
G1 X111.874 Y111.263 E21.65799
G1 X111.625 Y111.59 E21.67166
G1 X111.54 Y111.847 E21.68067
G1 X111.543 Y113.815 E21.74612
G1 X111.63 Y114.096 E21.7559
G1 X111.875 Y114.415 E21.76928
G1 X112.133 Y114.569 E21.77928
G1 X114.177 Y115.322 E21.85173
G1 X112.471 Y115.314 E21.90847
G1 X112.166 Y115.364 E21.91875
G1 X111.878 Y115.538 E21.92994
G1 X111.621 Y115.877 E21.94409
G1 X111.54 Y116.127 E21.95283
G1 X111.543 Y118.747 E22.03997
G1 X111.722 Y119.195 E22.05602
G1 X111.958 Y119.42 E22.06686
G1 X112.397 Y119.584 E22.08245
G1 X119.545 Y119.588 E22.32019
G1 X119.476 Y119.744 E22.32587
G1 X119.476 Y121.596 E22.38746
G1 X112.397 Y121.596 E22.62291
G1 X111.958 Y121.76 E22.6385
G1 X111.722 Y121.989 E22.64944
G1 X111.599 Y122.218 E22.65808
G1 X111.542 Y122.526 E22.6685
G1 X111.541 Y124.99 E22.75045
G1 X111.57 Y125.219 E22.75813
G1 X111.684 Y125.485 E22.76776
G1 X112.008 Y125.8 E22.78279
G1 X112.389 Y125.93 E22.79618
G1 X117.5 Y125.931 E22.96617
G1 F2700 E17.96617
G0 F6000 X117.5 Y125.672
G0 X112.416 Y125.753
G0 X107.29 Y125.751
G0 X107.669 Y138.216
G1 F2700 E22.96617
G1 F1200 X107.781 Y138.328 E22.97144
G0 F6000 X108.346 Y138.328
G1 F1200 X107.669 Y137.65 E23.0033
G0 F6000 X107.669 Y137.085
G1 F1200 X108.912 Y138.328 E23.06177
G0 F6000 X109.478 Y138.328
G1 F1200 X107.669 Y136.519 E23.14686
G0 F6000 X107.669 Y135.953
G1 F1200 X110.043 Y138.328 E23.25855
G0 F6000 X110.609 Y138.328
G1 F1200 X107.669 Y135.388 E23.39684
G0 F6000 X107.669 Y134.822
G1 F1200 X111.175 Y138.328 E23.56175
G0 F6000 X111.741 Y138.328
G1 F1200 X107.669 Y134.256 E23.75328
G0 F6000 X107.669 Y133.691
G1 F1200 X112.306 Y138.328 E23.97139
G0 F6000 X112.872 Y138.328
G1 F1200 X107.669 Y133.125 E24.21613
G0 F6000 X107.669 Y132.559
G1 F1200 X113.438 Y138.328 E24.48748
G0 F6000 X114.003 Y138.328
G1 F1200 X107.669 Y131.994 E24.78542
G0 F6000 X107.669 Y131.428
G1 F1200 X114.569 Y138.328 E25.10997
G0 F6000 X115.135 Y138.328
G1 F1200 X107.669 Y130.862 E25.46115
G0 F6000 X107.669 Y130.296
G1 F1200 X115.7 Y138.328 E25.83893
G0 F6000 X116.266 Y138.328
G1 F1200 X107.669 Y129.731 E26.2433
G0 F6000 X107.669 Y129.165
G1 F1200 X116.832 Y138.328 E26.6743
G0 F6000 X117.397 Y138.328
G1 F1200 X107.669 Y128.599 E27.1319
G0 F6000 X107.669 Y128.034
G1 F1200 X117.963 Y138.328 E27.6161
G0 F6000 X118.529 Y138.328
G1 F1200 X107.67 Y127.469 E28.12687
G0 F6000 X107.67 Y126.903
G1 F1200 X119.094 Y138.328 E28.66425
G0 F6000 X119.66 Y138.328
G1 F1200 X107.67 Y126.337 E29.22824
G0 F6000 X107.67 Y125.772
G1 F1200 X120.226 Y138.328 E29.81884
G0 F6000 X120.792 Y138.328
G1 F1200 X107.67 Y125.206 E30.43606
G0 F6000 X107.67 Y124.64
G1 F1200 X121.357 Y138.328 E31.07987
G0 F6000 X121.923 Y138.328
G1 F1200 X107.67 Y124.075 E31.75029
G0 F6000 X107.67 Y123.509
G1 F1200 X122.489 Y138.328 E32.44733
G0 F6000 X123.054 Y138.328
G1 F1200 X107.67 Y122.943 E33.17097
G0 F6000 X107.67 Y122.378
G1 F1200 X123.62 Y138.328 E33.92121
G0 F6000 X124.186 Y138.328
G1 F1200 X107.67 Y121.812 E34.69807
G0 F6000 X107.67 Y121.246
G1 F1200 X111.34 Y124.917 E34.87072
G0 F6000 X111.341 Y124.352
G1 F1200 X107.67 Y120.681 E35.04339
G0 F6000 X107.67 Y120.115
G1 F1200 X111.342 Y123.788 E35.21614
G0 F6000 X111.343 Y123.223
G1 F1200 X107.67 Y119.549 E35.38893
G0 F6000 X107.67 Y118.983
G1 F1200 X111.345 Y122.658 E35.56179
G0 F6000 X111.415 Y122.163
G1 F1200 X107.67 Y118.418 E35.73794
G0 F6000 X107.67 Y117.852
G1 F1200 X111.625 Y121.807 E35.92397
G0 F6000 X111.934 Y121.55
G1 F1200 X107.67 Y117.287 E36.12452
G0 F6000 X107.67 Y116.721
G1 F1200 X112.349 Y121.4 E36.3446
G0 F6000 X112.911 Y121.396
G1 F1200 X107.67 Y116.156 E36.5911
G0 F6000 X107.67 Y115.59
G1 F1200 X113.476 Y121.396 E36.86419
G0 F6000 X114.042 Y121.396
G1 F1200 X112.43 Y119.784 E36.94002
G0 F6000 X112.996 Y119.784
G1 F1200 X114.608 Y121.396 E37.01584
G0 F6000 X115.174 Y121.396
G1 F1200 X113.562 Y119.785 E37.09164
G0 F6000 X114.128 Y119.785
G1 F1200 X115.739 Y121.396 E37.16742
G0 F6000 X116.305 Y121.396
G1 F1200 X114.694 Y119.785 E37.24319
G0 F6000 X115.26 Y119.785
G1 F1200 X116.871 Y121.396 E37.31897
G0 F6000 X117.436 Y121.396
G1 F1200 X115.826 Y119.786 E37.3947
G0 F6000 X116.393 Y119.787
G1 F1200 X118.002 Y121.396 E37.47038
G0 F6000 X118.568 Y121.396
G1 F1200 X116.958 Y119.787 E37.54609
G0 F6000 X117.525 Y119.787
G1 F1200 X119.133 Y121.396 E37.62175
G0 F6000 X119.276 Y120.973
G1 F1200 X118.09 Y119.787 E37.67753
G0 F6000 X118.657 Y119.788
G1 F1200 X119.276 Y120.408 E37.70667
G0 F6000 X119.736 Y120.408
G0 X120 Y119.294
G0 X122.938 Y119.294
G0 X123.2 Y120.265
G0 X123.66 Y120.265
G1 F1200 X127.328 Y123.934 E37.87923
G0 F6000 X127.328 Y124.5
G1 F1200 X123.66 Y120.831 E38.05178
G0 F6000 X123.659 Y121.396
G1 F1200 X127.328 Y125.065 E38.22436
G0 F6000 X127.328 Y125.631
G1 F1200 X123.659 Y121.962 E38.39694
G0 F6000 X123.658 Y122.527
G1 F1200 X127.328 Y126.197 E38.56957
G0 F6000 X127.328 Y126.762
G1 F1200 X123.658 Y123.092 E38.74219
G0 F6000 X123.658 Y123.658
G1 F1200 X127.328 Y127.328 E38.91482
G0 F6000 X127.328 Y127.894
G1 F1200 X123.657 Y124.223 E39.08749
G0 F6000 X123.657 Y124.789
G1 F1200 X127.328 Y128.459 E39.26014
G0 F6000 X127.328 Y129.025
G1 F1200 X123.657 Y125.354 E39.43281
G0 F6000 X123.657 Y125.919
G1 F1200 X127.328 Y129.591 E39.60551
G0 F6000 X127.328 Y130.156
G1 F1200 X123.656 Y126.484 E39.77823
G0 F6000 X123.656 Y127.05
G1 F1200 X127.328 Y130.722 E39.95095
G0 F6000 X127.328 Y131.288
G1 F1200 X123.656 Y127.616 E40.12367
G0 F6000 X123.594 Y128.119
G1 F1200 X127.328 Y131.853 E40.2993
G0 F6000 X127.328 Y132.419
G1 F1200 X123.404 Y128.495 E40.48387
G0 F6000 X123.107 Y128.763
G1 F1200 X127.328 Y132.985 E40.68244
G0 F6000 X127.328 Y133.551
G1 F1200 X122.704 Y128.927 E40.89994
G0 F6000 X122.168 Y128.956
G1 F1200 X127.328 Y134.116 E41.14265
G0 F6000 X127.328 Y134.682
G1 F1200 X121.601 Y128.955 E41.41203
G0 F6000 X121.035 Y128.954
G1 F1200 X127.328 Y135.248 E41.70806
G0 F6000 X127.328 Y135.813
G1 F1200 X120.468 Y128.954 E42.03071
G0 F6000 X120.468 Y128.496
G0 X120.047 Y128.261
G0 X119.736 Y127.761
G0 X119.276 Y127.761
G1 F1200 X117.646 Y126.132 E42.10735
G0 F6000 X117.081 Y126.132
G1 F1200 X127.328 Y136.379 E42.58934
G0 F6000 X127.328 Y136.945
G1 F1200 X116.514 Y126.131 E43.098
G0 F6000 X115.949 Y126.131
G1 F1200 X127.328 Y137.51 E43.63323
G0 F6000 X127.328 Y138.076
G1 F1200 X115.382 Y126.13 E44.19514
G0 F6000 X114.816 Y126.13
G1 F1200 X127.014 Y138.328 E44.76889
G0 F6000 X126.448 Y138.328
G1 F1200 X114.25 Y126.129 E45.34267
G0 F6000 X113.684 Y126.129
G1 F1200 X125.883 Y138.328 E45.91648
G0 F6000 X125.317 Y138.328
G1 F1200 X113.118 Y126.129 E46.49028
G0 F6000 X112.552 Y126.129
G1 F1200 X124.751 Y138.328 E47.06408
G1 F2700 E42.06408
G0 F6000 X124.751 Y138.788
G0 X119.736 Y138.688
G0 X120.121 Y128.511
G0 X119.276 Y127.196
G1 F2700 E47.06408
G1 F1200 X118.213 Y126.132 E47.11411
G0 F6000 X118.778 Y126.132
G1 F1200 X119.276 Y126.63 E47.13753
G0 F6000 X119.736 Y126.63
G0 X120 Y128.235
G0 X122.938 Y128.235
G0 X123.2 Y119.7
G0 X123.66 Y119.7
G1 F1200 X127.328 Y123.368 E47.31006
G0 F6000 X127.328 Y122.803
G1 F1200 X123.561 Y119.035 E47.48727
G0 F6000 X123.655 Y118.563
G1 F1200 X127.328 Y122.237 E47.66006
G0 F6000 X127.328 Y121.671
G1 F1200 X123.655 Y117.998 E47.83283
G0 F6000 X123.656 Y117.433
G1 F1200 X127.328 Y121.105 E48.00555
G0 F6000 X127.328 Y120.54
G1 F1200 X123.657 Y116.868 E48.17825
G0 F6000 X123.657 Y116.304
G1 F1200 X127.328 Y119.974 E48.3509
G0 F6000 X127.328 Y119.408
G1 F1200 X123.658 Y115.739 E48.5235
G0 F6000 X123.659 Y115.174
G1 F1200 X127.328 Y118.843 E48.69608
G0 F6000 X127.328 Y118.277
G1 F1200 X121.33 Y112.279 E48.9782
G0 F6000 X120.912 Y112.427
G1 F1200 X122.348 Y113.863 E49.04575
G0 F6000 X121.492 Y113.572
G1 F1200 X120.495 Y112.576 E49.09262
G0 F6000 X120.077 Y112.723
G1 F1200 X120.635 Y113.281 E49.11887
G0 F6000 X119.778 Y112.99
G1 F1200 X119.66 Y112.872 E49.12442
G0 F6000 X119.508 Y112.439
G0 X121.596 Y111.699
G0 X121.748 Y112.131
G1 F1200 X127.328 Y117.711 E49.38688
G0 F6000 X127.328 Y117.146
G1 F1200 X122.165 Y111.983 E49.62974
G0 F6000 X122.583 Y111.835
G1 F1200 X127.328 Y116.58 E49.85293
G0 F6000 X127.328 Y116.014
G1 F1200 X122.991 Y111.678 E50.0569
G0 F6000 X123.315 Y111.436
G1 F1200 X127.328 Y115.449 E50.24566
G0 F6000 X127.328 Y114.883
G1 F1200 X123.556 Y111.111 E50.42308
G0 F6000 X123.655 Y110.645
G1 F1200 X127.328 Y114.317 E50.59583
G0 F6000 X127.328 Y113.752
G1 F1200 X123.656 Y110.08 E50.76855
G0 F6000 X123.657 Y109.515
