;FLAVOR:Marlin
;TIME:244
;Filament used: 0.0956554m
;Layer height: 0.12
;MINX:109.639
;MINY:111.77
;MINZ:0.2
;MAXX:124.496
;MAXY:123.362
;MAXZ:2.24
;TARGET_MACHINE.NAME:Creality Ender-3
;Generated with Cura_SteamEngine 5.11.0
M140 S60
M105
M190 S60
M104 S200
M105
M109 S200
; Ender 3 Custom Start G-code
G92 E0 ; Reset Extruder
G28 ; Home all axes
G1 Z2.0 F3000 ; Move Z Axis up little to prevent scratching of Heat Bed
G1 X0.1 Y20 Z0.3 F5000.0 ; Move to start position
G1 X0.1 Y200.0 Z0.3 F1500.0 E15 ; Draw the first line
G1 X0.4 Y200.0 Z0.3 F5000.0 ; Move to side a little
G1 X0.4 Y20 Z0.3 F1500.0 E30 ; Draw the second line
G92 E0 ; Reset Extruder
G1 Z2.0 F3000 ; Move Z Axis up little to prevent scratching of Heat Bed
G1 X5 Y20 Z0.3 F5000.0 ; Move over to prevent blob squish
M82 ;absolute extrusion mode
G92 E0
G92 E0
G1 F2700 E-5
;LAYER_COUNT:18
;LAYER:0
M107
;MESH:LedCover.stl
G0 F6000 X117.5 Y122.096 Z0.2
;TYPE:WALL-INNER
G1 F2700 E0
G1 F1200 X121.609 Y122.096 E0.13667
G1 X121.96 Y122.055 E0.14842
G1 X122.322 Y121.975 E0.16075
G1 X122.788 Y121.763 E0.17778
G1 X123.066 Y121.572 E0.189
G1 X123.289 Y121.388 E0.19861
G1 X123.494 Y121.164 E0.20871
G1 X123.707 Y120.869 E0.22081
G1 X123.867 Y120.589 E0.23154
G1 X123.999 Y120.211 E0.24486
G1 X124.066 Y119.929 E0.2545
G1 X124.096 Y119.623 E0.26472
G1 X124.096 Y115.387 E0.40561
G1 X124.055 Y115.039 E0.41727
G1 X123.973 Y114.681 E0.42948
G1 X123.82 Y114.329 E0.44225
G1 X123.572 Y113.93 E0.45787
G1 X123.388 Y113.707 E0.46749
G1 X123.164 Y113.503 E0.47757
G1 X122.874 Y113.294 E0.48946
G1 X122.459 Y113.083 E0.50494
G1 X122.219 Y113.001 E0.51338
G1 X121.927 Y112.93 E0.52337
G1 X121.623 Y112.901 E0.53353
G1 X113.387 Y112.9 E0.80746
G1 X113.04 Y112.94 E0.81908
G1 X112.669 Y113.029 E0.83177
G1 X112.326 Y113.179 E0.84422
G1 X111.93 Y113.424 E0.85971
G1 X111.707 Y113.608 E0.86932
G1 X111.504 Y113.831 E0.87935
G1 X111.291 Y114.128 E0.89151
G1 X111.084 Y114.536 E0.90672
G1 X111.001 Y114.784 E0.91542
G1 X110.93 Y115.074 E0.92535
G1 X110.901 Y115.37 E0.93524
G1 X110.9 Y119.605 E1.0761
G1 X110.941 Y119.956 E1.08786
G1 X111.03 Y120.335 E1.1008
G1 X111.229 Y120.783 E1.11711
G1 X111.424 Y121.066 E1.12854
G1 X111.608 Y121.289 E1.13815
G1 X111.832 Y121.493 E1.14823
G1 X112.122 Y121.702 E1.16012
G1 X112.537 Y121.913 E1.17561
G1 X112.777 Y121.995 E1.18404
G1 X113.072 Y122.066 E1.19413
G1 X113.373 Y122.096 E1.20419
G1 X117.5 Y122.096 E1.34146
G0 F6000 X117.5 Y122.496
;TYPE:WALL-OUTER
G1 F1200 X121.632 Y122.496 E1.47889
G1 X122.026 Y122.45 E1.49208
G1 X122.33 Y122.383 E1.50244
G1 X122.57 Y122.301 E1.51087
G1 X122.846 Y122.176 E1.52095
G1 X123.078 Y122.049 E1.52975
G1 X123.307 Y121.892 E1.53898
G1 X123.565 Y121.678 E1.55013
G1 X123.804 Y121.417 E1.5619
G1 X124.043 Y121.087 E1.57545
G1 X124.173 Y120.861 E1.58412
G1 X124.285 Y120.606 E1.59339
G1 X124.383 Y120.323 E1.60335
G1 X124.462 Y119.995 E1.61457
G1 X124.496 Y119.642 E1.62636
G1 X124.496 Y115.364 E1.76865
G1 X124.45 Y114.971 E1.78181
G1 X124.379 Y114.664 E1.79229
G1 X124.297 Y114.425 E1.8007
G1 X124.18 Y114.153 E1.81054
G1 X124.049 Y113.918 E1.81949
G1 X123.892 Y113.689 E1.82873
G1 X123.678 Y113.431 E1.83988
G1 X123.417 Y113.192 E1.85165
G1 X123.091 Y112.957 E1.86501
G1 X122.857 Y112.823 E1.87398
G1 X122.606 Y112.711 E1.88312
G1 X122.331 Y112.617 E1.89279
G1 X121.994 Y112.534 E1.90433
G1 X121.642 Y112.501 E1.91609
G1 X113.364 Y112.5 E2.19142
G1 X112.971 Y112.546 E2.20458
G1 X112.671 Y112.617 E2.21483
G1 X112.424 Y112.699 E2.22349
G1 X112.149 Y112.82 E2.23348
G1 X111.918 Y112.947 E2.24225
G1 X111.689 Y113.104 E2.25149
G1 X111.431 Y113.318 E2.26263
G1 X111.192 Y113.579 E2.27441
G1 X110.953 Y113.912 E2.28804
G1 X110.827 Y114.135 E2.29656
G1 X110.711 Y114.39 E2.30587
G1 X110.617 Y114.672 E2.31576
G1 X110.534 Y115.006 E2.32721
G1 X110.501 Y115.35 E2.3387
G1 X110.5 Y119.628 E2.48099
G1 X110.546 Y120.025 E2.49428
G1 X110.617 Y120.325 E2.50454
G1 X110.699 Y120.576 E2.51332
G1 X110.816 Y120.839 E2.52289
G1 X110.947 Y121.079 E2.53199
G1 X111.104 Y121.307 E2.54119
G1 X111.318 Y121.565 E2.55234
G1 X111.579 Y121.804 E2.56411
G1 X111.905 Y122.039 E2.57748
G1 X112.139 Y122.173 E2.58645
G1 X112.39 Y122.285 E2.59559
G1 X112.665 Y122.379 E2.60526
G1 X113.006 Y122.462 E2.61693
G1 X113.354 Y122.496 E2.62856
G1 X117.5 Y122.496 E2.76645
G0 F6000 X117.5 Y121.736
;TYPE:SKIN
G1 F1200 X113.387 Y121.736 E2.90325
G1 X113.003 Y121.697 E2.91609
G1 X112.402 Y121.459 E2.93759
G1 X111.948 Y121.131 E2.95622
G1 X111.629 Y120.75 E2.97275
G1 X111.408 Y120.3 E2.98942
G1 X111.297 Y119.893 E3.00345
G1 X111.26 Y119.58 E3.01394
G1 X111.26 Y115.222 E3.15888
G1 X111.377 Y114.747 E3.17515
G1 X111.596 Y114.317 E3.1912
G1 X111.781 Y114.058 E3.20179
G1 X111.955 Y113.866 E3.21041
G1 X112.249 Y113.626 E3.22303
G1 X112.691 Y113.408 E3.23942
G1 X113.103 Y113.297 E3.25361
G1 X113.408 Y113.26 E3.26383
G1 X121.61 Y113.261 E3.53663
G1 X121.984 Y113.297 E3.54913
G1 X122.591 Y113.534 E3.5708
G1 X123.05 Y113.865 E3.58963
G1 X123.284 Y114.145 E3.60176
G1 X123.492 Y114.486 E3.61505
G1 X123.68 Y114.956 E3.63188
G1 X123.736 Y115.409 E3.64707
G1 X123.736 Y119.606 E3.78666
G1 X123.699 Y119.979 E3.79912
G1 X123.462 Y120.587 E3.82083
G1 X123.208 Y120.941 E3.83532
G1 X122.975 Y121.195 E3.84678
G1 X122.604 Y121.449 E3.86174
G1 X122.295 Y121.591 E3.87305
G1 X121.901 Y121.699 E3.88664
G1 X121.584 Y121.736 E3.89725
G1 X117.5 Y121.736 E4.03309
G0 F6000 X117.5 Y121.996
G0 X113.1 Y121.908
G0 X112.308 Y121.639
G0 X111.726 Y121.178
G0 X111.097 Y120.148
G0 X111.54 Y120.026
G1 F1200 X112.981 Y121.466 E4.10084
G0 F6000 X113.617 Y121.536
G1 F1200 X111.46 Y119.379 E4.2023
G0 F6000 X111.46 Y118.814
G1 F1200 X114.182 Y121.536 E4.33034
G0 F6000 X114.748 Y121.536
G1 F1200 X111.46 Y118.248 E4.48499
G0 F6000 X111.46 Y117.682
G1 F1200 X115.314 Y121.536 E4.66627
G0 F6000 X115.879 Y121.536
G1 F1200 X111.46 Y117.117 E4.87413
G0 F6000 X111.46 Y116.551
G1 F1200 X116.445 Y121.536 E5.10861
G0 F6000 X117.011 Y121.536
G1 F1200 X111.46 Y115.985 E5.36971
G0 F6000 X111.46 Y115.42
G1 F1200 X117.576 Y121.536 E5.65739
G0 F6000 X118.142 Y121.536
G1 F1200 X111.538 Y114.932 E5.96802
G0 F6000 X111.708 Y114.536
G1 F1200 X118.708 Y121.536 E6.29728
G0 F6000 X119.273 Y121.536
G1 F1200 X111.93 Y114.193 E6.64267
G0 F6000 X112.215 Y113.912
G1 F1200 X119.839 Y121.536 E7.00128
G0 F6000 X120.405 Y121.536
G1 F1200 X112.563 Y113.694 E7.37015
G0 F6000 X112.974 Y113.539
G1 F1200 X120.97 Y121.536 E7.74628
G0 F6000 X121.536 Y121.536
G1 F1200 X113.46 Y113.46 E8.12615
G0 F6000 X114.026 Y113.46
G1 F1200 X122.023 Y121.458 E8.50232
G0 F6000 X122.436 Y121.305
G1 F1200 X114.592 Y113.46 E8.87131
G0 F6000 X115.157 Y113.46
G1 F1200 X122.781 Y121.084 E9.22992
G0 F6000 X123.063 Y120.801
G1 F1200 X115.723 Y113.46 E9.57519
G0 F6000 X116.289 Y113.46
G1 F1200 X123.295 Y120.467 E9.90475
G0 F6000 X123.454 Y120.06
G1 F1200 X116.854 Y113.46 E10.2152
G0 F6000 X117.42 Y113.46
G1 F1200 X123.536 Y119.576 E10.50288
G0 F6000 X123.536 Y119.01
G1 F1200 X117.986 Y113.461 E10.76391
G0 F6000 X118.552 Y113.461
G1 F1200 X123.536 Y118.445 E10.99834
G0 F6000 X123.536 Y117.879
G1 F1200 X119.118 Y113.461 E11.20615
G0 F6000 X119.683 Y113.461
G1 F1200 X123.536 Y117.313 E11.38736
G0 F6000 X123.536 Y116.748
G1 F1200 X120.249 Y113.461 E11.54197
G0 F6000 X120.815 Y113.461
G1 F1200 X123.536 Y116.182 E11.66996
G0 F6000 X123.536 Y115.616
G1 F1200 X121.381 Y113.461 E11.77132
G0 F6000 X122.016 Y113.531
G1 F1200 X123.479 Y114.993 E11.84011
;MESH:NONMESH
G0 F300 X123.479 Y114.993 Z0.32
G0 F6000 X123.823 Y114.609
G0 X123.935 Y115.396
G0 X123.907 Y119.902
G0 X123.64 Y120.687
G0 X123.178 Y121.271
G0 X122.71 Y121.622
G0 X121.934 Y121.897
G0 X117.5 Y122.096
;TIME_ELAPSED:25.268604
;LAYER:1
M106 S85
;TYPE:WALL-INNER
;MESH:LedCover.stl
G1 F2100 X121.622 Y122.096 E11.92237
G1 X121.912 Y122.066 E11.92819
G1 X122.346 Y121.964 E11.93709
G1 X122.786 Y121.764 E11.94673
G1 X123.147 Y121.519 E11.95544
G1 X123.519 Y121.147 E11.96594
G1 X123.77 Y120.777 E11.97486
G1 X123.968 Y120.329 E11.98463
G1 X124.066 Y119.912 E11.99318
G1 X124.096 Y119.622 E11.999
G1 X124.096 Y115.378 E12.08369
G1 X124.066 Y115.083 E12.08961
G1 X123.971 Y114.677 E12.09793
G1 X123.82 Y114.33 E12.10548
G1 X123.535 Y113.865 E12.11637
G1 X123.244 Y113.573 E12.1246
G1 X122.798 Y113.234 E12.13577
G1 X122.315 Y113.025 E12.14628
G1 X121.912 Y112.93 E12.15454
G1 X121.622 Y112.9 E12.16036
G1 X113.378 Y112.9 E12.32488
G1 X113.083 Y112.93 E12.33079
G1 X112.68 Y113.025 E12.33906
G1 X112.198 Y113.235 E12.34955
G1 X111.752 Y113.573 E12.36072
G1 X111.573 Y113.752 E12.36577
G1 X111.228 Y114.208 E12.37718
G1 X111.023 Y114.686 E12.38756
G1 X110.93 Y115.083 E12.39569
G1 X110.9 Y115.378 E12.40161
G1 X110.9 Y119.622 E12.48631
G1 X110.93 Y119.912 E12.49212
G1 X111.029 Y120.335 E12.50079
G1 X111.231 Y120.788 E12.51069
G1 X111.496 Y121.168 E12.51994
G1 X111.85 Y121.52 E12.5299
G1 X112.21 Y121.764 E12.53858
G1 X112.65 Y121.964 E12.54822
G1 X113.083 Y122.066 E12.5571
G1 X113.378 Y122.096 E12.56302
G1 X117.5 Y122.096 E12.64528
G0 F10500 X117.5 Y122.496
;TYPE:WALL-OUTER
G1 F2100 X121.642 Y122.496 E12.72794
G1 X121.978 Y122.462 E12.73467
G1 X122.33 Y122.379 E12.74189
G1 X122.571 Y122.301 E12.74695
G1 X122.846 Y122.176 E12.75298
G1 X123.079 Y122.049 E12.75827
G1 X123.299 Y121.9 E12.76357
G1 X123.512 Y121.72 E12.76914
G1 X123.72 Y121.512 E12.77501
G1 X123.9 Y121.299 E12.78057
G1 X124.049 Y121.079 E12.78588
G1 X124.18 Y120.839 E12.79133
G1 X124.297 Y120.575 E12.7971
G1 X124.379 Y120.329 E12.80227
G1 X124.462 Y119.978 E12.80947
G1 X124.496 Y119.642 E12.81621
G1 X124.496 Y115.358 E12.9017
G1 X124.462 Y115.017 E12.90854
G1 X124.379 Y114.664 E12.91577
G1 X124.297 Y114.425 E12.92082
G1 X124.18 Y114.153 E12.92673
G1 X124.049 Y113.917 E12.93211
G1 X123.9 Y113.697 E12.93742
G1 X123.72 Y113.484 E12.94298
G1 X123.513 Y113.277 E12.94882
G1 X123.299 Y113.1 E12.95436
G1 X123.078 Y112.947 E12.95973
G1 X122.847 Y112.82 E12.96499
G1 X122.571 Y112.699 E12.971
G1 X122.328 Y112.617 E12.97612
G1 X121.978 Y112.534 E12.9833
G1 X121.642 Y112.5 E12.99004
G1 X113.358 Y112.5 E13.15536
G1 X113.017 Y112.534 E13.16219
G1 X112.668 Y112.617 E13.16935
G1 X112.425 Y112.699 E13.17447
G1 X112.149 Y112.82 E13.18048
G1 X111.918 Y112.947 E13.18575
G1 X111.697 Y113.1 E13.19111
G1 X111.483 Y113.277 E13.19665
G1 X111.277 Y113.483 E13.20247
G1 X111.1 Y113.697 E13.20801
G1 X110.947 Y113.918 E13.21337
G1 X110.816 Y114.153 E13.21874
G1 X110.699 Y114.425 E13.22465
G1 X110.617 Y114.664 E13.22969
G1 X110.534 Y115.017 E13.23693
G1 X110.5 Y115.358 E13.24377
G1 X110.5 Y119.642 E13.32926
G1 X110.534 Y119.978 E13.336
G1 X110.617 Y120.329 E13.3432
G1 X110.699 Y120.575 E13.34837
G1 X110.816 Y120.839 E13.35413
G1 X110.947 Y121.078 E13.35957
G1 X111.1 Y121.299 E13.36494
G1 X111.277 Y121.513 E13.37048
G1 X111.484 Y121.72 E13.37632
G1 X111.697 Y121.9 E13.38189
G1 X111.917 Y122.049 E13.38719
G1 X112.15 Y122.176 E13.39248
G1 X112.425 Y122.301 E13.39851
G1 X112.666 Y122.379 E13.40357
G1 X113.017 Y122.462 E13.41077
G1 X113.358 Y122.496 E13.4176
G1 X117.5 Y122.496 E13.50026
G0 F10500 X117.5 Y121.736
;TYPE:SKIN
G1 F2100 X113.391 Y121.736 E13.58226
G1 X113.142 Y121.71 E13.58726
G1 X112.757 Y121.618 E13.59516
G1 X112.223 Y121.353 E13.60705
G1 X111.845 Y121.005 E13.61731
G1 X111.591 Y120.67 E13.6257
G1 X111.374 Y120.227 E13.63554
G1 X111.26 Y119.766 E13.64502
G1 X111.26 Y115.24 E13.73534
G1 X111.348 Y114.876 E13.74281
G1 X111.537 Y114.391 E13.7532
G1 X111.903 Y113.907 E13.76531
G1 X112.387 Y113.541 E13.77742
G1 X112.889 Y113.343 E13.78819
G1 X113.137 Y113.282 E13.79328
G1 X113.389 Y113.26 E13.79833
G1 X121.76 Y113.26 E13.96538
G1 X122.107 Y113.344 E13.97251
G1 X122.608 Y113.54 E13.98325
G1 X122.996 Y113.837 E13.993
G1 X123.292 Y114.158 E14.00171
G1 X123.496 Y114.486 E14.00942
G1 X123.644 Y114.872 E14.01767
G1 X123.736 Y115.26 E14.02563
G1 X123.736 Y119.747 E14.11517
G1 X123.618 Y120.227 E14.12503
G1 X123.4 Y120.674 E14.13496
G1 X123.151 Y121.005 E14.14322
G1 X122.773 Y121.353 E14.15348
G1 X122.236 Y121.618 E14.16543
G1 X121.731 Y121.736 E14.17578
G1 X117.5 Y121.736 E14.26021
G0 F10500 X117.5 Y121.996
G0 X121.885 Y121.908
G0 X122.303 Y121.809
G0 X122.775 Y121.575
G0 X123.485 Y120.997
G0 X123.19 Y120.62
G1 F2100 X122.591 Y121.219 E14.27712
G0 F10500 X121.709 Y121.535
G1 F2100 X123.536 Y119.709 E14.32866
G0 F10500 X123.536 Y119.143
G1 F2100 X121.143 Y121.536 E14.3962
G0 F10500 X120.577 Y121.536
G1 F2100 X123.536 Y118.578 E14.47969
G0 F10500 X123.536 Y118.012
G1 F2100 X120.012 Y121.536 E14.57915
G0 F10500 X119.446 Y121.536
G1 F2100 X123.536 Y117.446 E14.69458
G0 F10500 X123.536 Y116.881
G1 F2100 X118.88 Y121.536 E14.82597
G0 F10500 X118.315 Y121.536
G1 F2100 X123.536 Y116.315 E14.97331
G0 F10500 X123.536 Y115.749
G1 F2100 X117.749 Y121.536 E15.13664
G0 F10500 X117.183 Y121.536
G1 F2100 X123.516 Y115.203 E15.31537
G0 F10500 X123.388 Y114.766
G1 F2100 X116.617 Y121.536 E15.50644
G0 F10500 X116.052 Y121.536
G1 F2100 X123.199 Y114.389 E15.70815
G0 F10500 X122.945 Y114.078
G1 F2100 X115.486 Y121.536 E15.91864
G0 F10500 X114.92 Y121.536
G1 F2100 X122.64 Y113.817 E16.1365
G0 F10500 X122.269 Y113.621
G1 F2100 X114.355 Y121.536 E16.35987
G0 F10500 X113.789 Y121.536
G1 F2100 X121.827 Y113.498 E16.58672
G0 F10500 X121.299 Y113.46
G1 F2100 X113.233 Y121.526 E16.81436
G0 F10500 X112.785 Y121.409
G1 F2100 X120.734 Y113.46 E17.0387
G0 F10500 X120.168 Y113.46
G1 F2100 X112.407 Y121.221 E17.25773
G0 F10500 X112.097 Y120.965
G1 F2100 X119.602 Y113.46 E17.46954
G0 F10500 X119.036 Y113.46
G1 F2100 X111.836 Y120.661 E17.67275
G0 F10500 X111.632 Y120.299
G1 F2100 X118.471 Y113.46 E17.86576
G0 F10500 X117.905 Y113.46
G1 F2100 X111.492 Y119.873 E18.04675
G0 F10500 X111.46 Y119.34
G1 F2100 X117.339 Y113.46 E18.21268
G0 F10500 X116.774 Y113.46
G1 F2100 X111.46 Y118.774 E18.36265
G0 F10500 X111.46 Y118.208
G1 F2100 X116.208 Y113.46 E18.49665
G0 F10500 X115.642 Y113.46
G1 F2100 X111.46 Y117.643 E18.61469
G0 F10500 X111.46 Y117.077
G1 F2100 X115.077 Y113.46 E18.71677
G0 F10500 X114.511 Y113.46
G1 F2100 X111.46 Y116.511 E18.80288
G0 F10500 X111.46 Y115.946
G1 F2100 X113.945 Y113.46 E18.87302
G0 F10500 X113.376 Y113.464
G1 F2100 X111.46 Y115.38 E18.9271
G0 F10500 X111.668 Y114.606
G1 F2100 X112.604 Y113.67 E18.95351
;MESH:NONMESH
G0 F300 X112.604 Y113.67 Z0.44
G0 F10500 X112.437 Y113.243
G0 X111.764 Y113.765
G0 X111.362 Y114.298
G0 X111.088 Y115.11
G0 X111.088 Y119.885
G0 X111.187 Y120.3
G0 X111.424 Y120.783
G0 X111.692 Y121.135
G0 X112.11 Y121.52
G0 X112.687 Y121.806
G0 X113.254 Y121.91
G0 X117.5 Y122.096
;TIME_ELAPSED:39.523082
;LAYER:2
;note -- min layer time used
M106 S170
;TYPE:WALL-INNER
;MESH:LedCover.stl
G1 F2166.3 X121.622 Y122.096 E19.03577
G1 X121.912 Y122.066 E19.04159
G1 X122.346 Y121.964 E19.05049
G1 X122.786 Y121.764 E19.06013
G1 X123.147 Y121.519 E19.06884
G1 X123.519 Y121.147 E19.07934
G1 X123.77 Y120.777 E19.08826
G1 X123.968 Y120.329 E19.09803
G1 X124.066 Y119.912 E19.10658
G1 X124.096 Y119.622 E19.1124
G1 X124.096 Y115.378 E19.1971
G1 X124.066 Y115.083 E19.20301
G1 X123.971 Y114.677 E19.21133
G1 X123.82 Y114.33 E19.21889
G1 X123.535 Y113.865 E19.22977
G1 X123.244 Y113.573 E19.238
G1 X122.798 Y113.234 E19.24918
G1 X122.315 Y113.025 E19.25968
G1 X121.912 Y112.93 E19.26794
G1 X121.622 Y112.9 E19.27376
G1 X113.378 Y112.9 E19.43828
G1 X113.083 Y112.93 E19.44419
G1 X112.68 Y113.025 E19.45246
G1 X112.198 Y113.235 E19.46295
G1 X111.752 Y113.573 E19.47412
G1 X111.573 Y113.752 E19.47917
G1 X111.228 Y114.208 E19.49058
G1 X111.023 Y114.686 E19.50096
G1 X110.93 Y115.083 E19.5091
G1 X110.9 Y115.378 E19.51501
G1 X110.9 Y119.622 E19.59971
G1 X110.93 Y119.912 E19.60553
G1 X111.029 Y120.335 E19.61419
G1 X111.231 Y120.788 E19.62409
G1 X111.496 Y121.168 E19.63334
G1 X111.85 Y121.52 E19.6433
G1 X112.21 Y121.764 E19.65198
G1 X112.65 Y121.964 E19.66162
G1 X113.083 Y122.066 E19.6705
G1 X113.378 Y122.096 E19.67642
G1 X117.5 Y122.096 E19.75868
G0 F15000 X117.5 Y122.496
;TYPE:WALL-OUTER
G1 F2166.3 X121.642 Y122.496 E19.84134
G1 X121.978 Y122.462 E19.84808
G1 X122.33 Y122.379 E19.85529
G1 X122.571 Y122.301 E19.86035
G1 X122.846 Y122.176 E19.86638
G1 X123.079 Y122.049 E19.87167
