;FLAVOR:Marlin
;TIME:316
;Filament used: 0.130665m
;Layer height: 0.12
;MINX:102.503
;MINY:104.503
;MINZ:0.2
;MAXX:132.497
;MAXY:130.493
;MAXZ:2.36
;TARGET_MACHINE.NAME:Creality Ender-3
;Generated with Cura_SteamEngine 5.11.0
M140 S60
M105
M190 S60
M104 S200
M105
M109 S200
; Ender 3 Custom Start G-code
G92 E0 ; Reset Extruder
G28 ; Home all axes
G1 Z2.0 F3000 ; Move Z Axis up little to prevent scratching of Heat Bed
G1 X0.1 Y20 Z0.3 F5000.0 ; Move to start position
G1 X0.1 Y200.0 Z0.3 F1500.0 E15 ; Draw the first line
G1 X0.4 Y200.0 Z0.3 F5000.0 ; Move to side a little
G1 X0.4 Y20 Z0.3 F1500.0 E30 ; Draw the second line
G92 E0 ; Reset Extruder
G1 Z2.0 F3000 ; Move Z Axis up little to prevent scratching of Heat Bed
G1 X5 Y20 Z0.3 F5000.0 ; Move over to prevent blob squish
M82 ;absolute extrusion mode
G92 E0
G92 E0
G1 F2700 E-5
;LAYER_COUNT:19
;LAYER:0
M107
G0 F6000 X105.581 Y107.879 Z0.2
;TYPE:SKIRT
G1 F2700 E0
G1 F1200 X107.076 Y106.582 E0.06583
G1 X108.087 Y105.917 E0.10608
G1 X108.415 Y105.739 E0.11849
G1 X109.806 Y105.15 E0.16873
G1 X110.967 Y104.794 E0.20912
G1 X111.514 Y104.68 E0.2277
G1 X113.368 Y104.503 E0.28965
G1 X122.163 Y104.535 E0.58217
G1 X123.944 Y104.786 E0.642
G1 X125.092 Y105.113 E0.6817
G1 X126.768 Y105.837 E0.74242
G1 X127.172 Y106.07 E0.75793
G1 X128.475 Y106.999 E0.81116
G1 X129.121 Y107.581 E0.84008
G1 X130.418 Y109.076 E0.9059
G1 X131.083 Y110.087 E0.94615
G1 X131.261 Y110.415 E0.95856
G1 X131.85 Y111.806 E1.00881
G1 X132.206 Y112.967 E1.0492
G1 X132.32 Y113.514 E1.06778
G1 X132.497 Y115.382 E1.13019
G1 X132.477 Y120.016 E1.28432
G1 X132.214 Y121.944 E1.34904
G1 X131.887 Y123.092 E1.38874
G1 X131.163 Y124.768 E1.44946
G1 X130.93 Y125.172 E1.46497
G1 X130.001 Y126.475 E1.5182
G1 X129.419 Y127.121 E1.54712
G1 X127.924 Y128.418 E1.61295
G1 X126.913 Y129.083 E1.65319
G1 X126.585 Y129.261 E1.66561
G1 X125.198 Y129.85 E1.71573
G1 X124.106 Y130.186 E1.75373
G1 X123.362 Y130.338 E1.77898
G1 X121.722 Y130.493 E1.83377
G1 X112.837 Y130.465 E2.12929
G1 X111.056 Y130.214 E2.18911
G1 X109.908 Y129.887 E2.22881
G1 X108.232 Y129.163 E2.28954
G1 X107.828 Y128.93 E2.30505
G1 X106.525 Y128.001 E2.35827
G1 X105.879 Y127.419 E2.38719
G1 X104.582 Y125.924 E2.45302
G1 X103.917 Y124.913 E2.49327
G1 X103.739 Y124.585 E2.50568
G1 X103.15 Y123.194 E2.55592
G1 X102.794 Y122.033 E2.59631
G1 X102.68 Y121.486 E2.6149
G1 X102.503 Y119.618 E2.67731
G1 X102.523 Y114.984 E2.83143
G1 X102.786 Y113.056 E2.89615
G1 X103.113 Y111.908 E2.93585
G1 X103.837 Y110.232 E2.99658
G1 X104.07 Y109.828 E3.01209
G1 X104.999 Y108.525 E3.06531
G1 X105.581 Y107.879 E3.09423
G0 F6000 X105.878 Y108.147
G1 F1200 X107.296 Y106.916 E3.15669
G1 X108.278 Y106.269 E3.1958
G1 X108.606 Y106.091 E3.20822
G1 X109.924 Y105.532 E3.25583
G1 X111.049 Y105.186 E3.29498
G1 X111.596 Y105.072 E3.31356
G1 X113.367 Y104.903 E3.37273
G1 X122.108 Y104.931 E3.66346
G1 X123.834 Y105.171 E3.72142
G1 X124.982 Y105.498 E3.76112
G1 X126.568 Y106.184 E3.8186
G1 X126.972 Y106.417 E3.83411
G1 X128.207 Y107.296 E3.88453
G1 X128.853 Y107.878 E3.91345
G1 X130.084 Y109.296 E3.9759
G1 X130.731 Y110.278 E4.01502
G1 X130.909 Y110.606 E4.02743
G1 X131.468 Y111.924 E4.07504
G1 X131.814 Y113.049 E4.11419
G1 X131.928 Y113.596 E4.13278
G1 X132.097 Y115.38 E4.19238
G1 X132.077 Y120.014 E4.34651
G1 X131.829 Y121.834 E4.4076
G1 X131.502 Y122.982 E4.4473
G1 X130.816 Y124.568 E4.50477
G1 X130.583 Y124.972 E4.52029
G1 X129.704 Y126.207 E4.5707
G1 X129.122 Y126.853 E4.59962
G1 X127.704 Y128.084 E4.66208
G1 X126.722 Y128.731 E4.70119
G1 X126.394 Y128.909 E4.71361
G1 X125.042 Y129.482 E4.76244
G1 X124.026 Y129.794 E4.79779
G1 X123.282 Y129.946 E4.82305
G1 X121.723 Y130.093 E4.87513
G1 X112.892 Y130.069 E5.16886
G1 X111.166 Y129.829 E5.22681
G1 X110.018 Y129.502 E5.26652
G1 X108.432 Y128.816 E5.32399
G1 X108.028 Y128.583 E5.3395
G1 X106.793 Y127.704 E5.38992
G1 X106.147 Y127.122 E5.41884
G1 X104.916 Y125.704 E5.48129
G1 X104.269 Y124.722 E5.52041
G1 X104.091 Y124.394 E5.53282
G1 X103.532 Y123.076 E5.58044
G1 X103.186 Y121.951 E5.61958
G1 X103.072 Y121.404 E5.63817
G1 X102.903 Y119.62 E5.69777
G1 X102.923 Y114.986 E5.8519
G1 X103.171 Y113.166 E5.91299
G1 X103.498 Y112.018 E5.95269
G1 X104.184 Y110.432 E6.01017
G1 X104.417 Y110.028 E6.02568
G1 X105.296 Y108.793 E6.0761
G1 X105.878 Y108.147 E6.10502
G0 F6000 X106.141 Y108.449
G1 F1200 X107.517 Y107.25 E6.16572
G1 X108.469 Y106.621 E6.20367
G1 X108.797 Y106.443 E6.21608
G1 X110.08 Y105.9 E6.26242
G1 X111.131 Y105.578 E6.29898
G1 X111.678 Y105.464 E6.31756
G1 X113.366 Y105.303 E6.37396
G1 X122.054 Y105.327 E6.66293
G1 X123.724 Y105.556 E6.71899
G1 X124.872 Y105.883 E6.75869
G1 X126.368 Y106.531 E6.81292
G1 X126.772 Y106.764 E6.82843
G1 X127.94 Y107.594 E6.87609
G1 X128.551 Y108.141 E6.90336
G1 X129.75 Y109.517 E6.96407
G1 X130.379 Y110.469 E7.00202
G1 X130.557 Y110.797 E7.01443
G1 X131.1 Y112.08 E7.06077
G1 X131.422 Y113.131 E7.09733
G1 X131.536 Y113.678 E7.11591
G1 X131.697 Y115.378 E7.17271
G1 X131.677 Y120.012 E7.32683
G1 X131.444 Y121.724 E7.3843
G1 X131.117 Y122.872 E7.424
G1 X130.469 Y124.368 E7.47823
G1 X130.236 Y124.772 E7.49374
G1 X129.406 Y125.94 E7.5414
G1 X128.859 Y126.551 E7.56867
G1 X127.483 Y127.75 E7.62937
G1 X126.531 Y128.379 E7.66732
G1 X126.203 Y128.557 E7.67974
G1 X124.886 Y129.114 E7.7273
G1 X123.946 Y129.402 E7.76
G1 X123.202 Y129.554 E7.78525
G1 X121.724 Y129.693 E7.83463
G1 X112.946 Y129.673 E8.12659
G1 X111.276 Y129.444 E8.18265
G1 X110.128 Y129.117 E8.22235
G1 X108.632 Y128.469 E8.27658
G1 X108.228 Y128.236 E8.29209
G1 X107.06 Y127.406 E8.33975
G1 X106.449 Y126.859 E8.36702
G1 X105.25 Y125.483 E8.42772
G1 X104.621 Y124.531 E8.46568
G1 X104.443 Y124.203 E8.47809
G1 X103.9 Y122.92 E8.52442
G1 X103.578 Y121.869 E8.56099
G1 X103.464 Y121.322 E8.57957
G1 X103.303 Y119.622 E8.63636
G1 X103.323 Y114.988 E8.79049
G1 X103.556 Y113.276 E8.84796
G1 X103.883 Y112.128 E8.88766
G1 X104.531 Y110.632 E8.94189
G1 X104.764 Y110.228 E8.9574
G1 X105.594 Y109.06 E9.00505
G1 X106.141 Y108.449 E9.03233
G0 F6000 X106.404 Y108.751
G1 F1200 X107.78 Y107.552 E9.09303
G1 X108.66 Y106.973 E9.12807
G1 X108.988 Y106.795 E9.14048
G1 X110.198 Y106.282 E9.18419
G1 X111.213 Y105.97 E9.21951
G1 X111.76 Y105.856 E9.2381
G1 X113.365 Y105.703 E9.29172
G1 X122 Y105.723 E9.57892
G1 X123.614 Y105.941 E9.63309
G1 X124.762 Y106.268 E9.67279
G1 X126.168 Y106.878 E9.72377
G1 X126.572 Y107.111 E9.73928
G1 X127.674 Y107.893 E9.78422
G1 X128.249 Y108.404 E9.80981
G1 X129.448 Y109.78 E9.87051
G1 X130.027 Y110.66 E9.90555
G1 X130.205 Y110.988 E9.91796
G1 X130.718 Y112.198 E9.96167
G1 X131.03 Y113.213 E9.99699
G1 X131.144 Y113.76 E10.01558
G1 X131.297 Y115.376 E10.06956
G1 X131.277 Y120.01 E10.22369
G1 X131.059 Y121.614 E10.27753
G1 X130.732 Y122.762 E10.31723
G1 X130.122 Y124.168 E10.36821
G1 X129.889 Y124.572 E10.38372
G1 X129.107 Y125.674 E10.42866
G1 X128.596 Y126.249 E10.45425
G1 X127.22 Y127.448 E10.51495
G1 X126.34 Y128.027 E10.54999
G1 X126.012 Y128.205 E10.5624
G1 X124.768 Y128.732 E10.60734
G1 X123.864 Y129.01 E10.63879
G1 X123.164 Y129.156 E10.66258
G1 X121.725 Y129.293 E10.71065
G1 X113 Y129.277 E11.00085
G1 X111.386 Y129.059 E11.05502
G1 X110.238 Y128.732 E11.09472
G1 X108.832 Y128.122 E11.1457
G1 X108.428 Y127.889 E11.16121
G1 X107.326 Y127.107 E11.20615
G1 X106.751 Y126.596 E11.23174
G1 X105.552 Y125.22 E11.29244
G1 X104.973 Y124.34 E11.32747
G1 X104.795 Y124.012 E11.33989
G1 X104.282 Y122.802 E11.3836
G1 X103.97 Y121.787 E11.41892
G1 X103.856 Y121.24 E11.4375
G1 X103.703 Y119.624 E11.49149
G1 X103.723 Y114.99 E11.64562
G1 X103.941 Y113.386 E11.69946
G1 X104.268 Y112.238 E11.73916
G1 X104.878 Y110.832 E11.79014
G1 X105.111 Y110.428 E11.80565
G1 X105.893 Y109.326 E11.85059
G1 X106.404 Y108.751 E11.87618
G0 F6000 X106.667 Y109.052
G1 F1200 X108 Y107.886 E11.93508
G1 X108.851 Y107.325 E11.96898
G1 X109.179 Y107.147 E11.98139
G1 X110.316 Y106.664 E12.02248
G1 X111.295 Y106.362 E12.05656
G1 X111.842 Y106.248 E12.07514
G1 X113.364 Y106.103 E12.12599
G1 X121.999 Y106.123 E12.41319
G1 X123.504 Y106.326 E12.4637
G1 X124.652 Y106.653 E12.5034
G1 X125.968 Y107.225 E12.55113
G1 X126.372 Y107.458 E12.56664
G1 X127.442 Y108.219 E12.61031
G1 X127.948 Y108.667 E12.63279
G1 X129.114 Y110 E12.6917
G1 X129.675 Y110.851 E12.7256
G1 X129.853 Y111.179 E12.73801
G1 X130.336 Y112.316 E12.7791
G1 X130.638 Y113.295 E12.81317
G1 X130.752 Y113.842 E12.83176
G1 X130.897 Y115.374 E12.88294
G1 X130.877 Y120.008 E13.03707
G1 X130.674 Y121.504 E13.08728
G1 X130.347 Y122.652 E13.12698
G1 X129.775 Y123.968 E13.17471
G1 X129.542 Y124.372 E13.19022
G1 X128.781 Y125.442 E13.23389
G1 X128.333 Y125.948 E13.25637
G1 X127 Y127.114 E13.31527
G1 X126.149 Y127.675 E13.34917
G1 X125.821 Y127.853 E13.36159
G1 X124.65 Y128.35 E13.4039
G1 X123.782 Y128.618 E13.43411
G1 X123.082 Y128.764 E13.45789
G1 X121.726 Y128.893 E13.5032
G1 X113.001 Y128.877 E13.79339
G1 X111.496 Y128.674 E13.8439
G1 X110.348 Y128.347 E13.88361
G1 X109.032 Y127.775 E13.93133
G1 X108.628 Y127.542 E13.94684
G1 X107.558 Y126.781 E13.99051
G1 X107.052 Y126.333 E14.01299
G1 X105.886 Y125 E14.0719
G1 X105.325 Y124.149 E14.1058
G1 X105.147 Y123.821 E14.11821
G1 X104.664 Y122.684 E14.1593
G1 X104.362 Y121.705 E14.19337
G1 X104.248 Y121.158 E14.21196
G1 X104.103 Y119.626 E14.26314
G1 X104.123 Y114.992 E14.41727
G1 X104.326 Y113.496 E14.46748
G1 X104.653 Y112.348 E14.50718
G1 X105.225 Y111.032 E14.55491
G1 X105.458 Y110.628 E14.57042
G1 X106.219 Y109.558 E14.61409
G1 X106.667 Y109.052 E14.63657
G0 F6000 X106.931 Y109.353
G1 F1200 X108.221 Y108.22 E14.69367
G1 X109.042 Y107.677 E14.72641
G1 X109.37 Y107.499 E14.73883
G1 X110.472 Y107.032 E14.77863
G1 X111.377 Y106.754 E14.81012
G1 X111.924 Y106.64 E14.82871
G1 X113.363 Y106.503 E14.87678
G1 X121.998 Y106.523 E15.16399
G1 X123.396 Y106.711 E15.2109
G1 X124.493 Y107.02 E15.24881
G1 X125.768 Y107.572 E15.29502
G1 X126.172 Y107.805 E15.31053
G1 X127.178 Y108.52 E15.35158
G1 X127.647 Y108.931 E15.37232
G1 X128.78 Y110.221 E15.42943
G1 X129.323 Y111.042 E15.46216
G1 X129.501 Y111.37 E15.47458
G1 X129.968 Y112.472 E15.51438
G1 X130.246 Y113.377 E15.54587
G1 X130.36 Y113.924 E15.56446
G1 X130.497 Y115.372 E15.61283
G1 X130.477 Y120.006 E15.76696
G1 X130.289 Y121.396 E15.81361
G1 X129.98 Y122.493 E15.85152
G1 X129.428 Y123.768 E15.89773
G1 X129.195 Y124.172 E15.91324
G1 X128.48 Y125.178 E15.95429
G1 X128.069 Y125.647 E15.97503
G1 X126.779 Y126.78 E16.03214
G1 X125.958 Y127.323 E16.06488
G1 X125.63 Y127.501 E16.07729
G1 X124.494 Y127.982 E16.11832
G1 X123.7 Y128.226 E16.14595
G1 X123 Y128.372 E16.16973
G1 X121.727 Y128.493 E16.21226
G1 X113.002 Y128.477 E16.50246
G1 X111.604 Y128.289 E16.54937
G1 X110.507 Y127.98 E16.58728
G1 X109.232 Y127.428 E16.63349
G1 X108.828 Y127.195 E16.649
G1 X107.822 Y126.48 E16.69005
G1 X107.353 Y126.069 E16.71079
G1 X106.22 Y124.779 E16.7679
G1 X105.677 Y123.958 E16.80064
G1 X105.499 Y123.63 E16.81305
G1 X105.032 Y122.528 E16.85286
G1 X104.754 Y121.623 E16.88435
G1 X104.64 Y121.076 E16.90293
G1 X104.503 Y119.628 E16.9513
G1 X104.523 Y114.994 E17.10543
G1 X104.711 Y113.604 E17.15209
G1 X105.02 Y112.507 E17.18999
G1 X105.572 Y111.232 E17.2362
G1 X105.805 Y110.828 E17.25171
G1 X106.52 Y109.822 E17.29276
G1 X106.931 Y109.353 E17.31351
G0 F6000 X107.232 Y109.617
G1 F1200 X108.442 Y108.553 E17.3671
G1 X109.233 Y108.029 E17.39865
G1 X109.561 Y107.851 E17.41107
G1 X110.59 Y107.414 E17.44825
G1 X111.459 Y107.146 E17.4785
G1 X112.006 Y107.032 E17.49708
G1 X113.362 Y106.903 E17.54238
G1 X121.997 Y106.923 E17.82959
G1 X123.289 Y107.096 E17.87294
G1 X124.335 Y107.387 E17.90905
G1 X125.568 Y107.919 E17.95372
G1 X125.972 Y108.152 E17.96923
G1 X126.914 Y108.821 E18.00766
G1 X127.383 Y109.232 E18.0284
G1 X128.447 Y110.442 E18.08199
G1 X128.971 Y111.233 E18.11355
G1 X129.149 Y111.561 E18.12596
G1 X129.586 Y112.59 E18.16314
G1 X129.854 Y113.459 E18.19339
G1 X129.968 Y114.006 E18.21197
G1 X130.097 Y115.37 E18.25754
G1 X130.077 Y120.004 E18.41167
G1 X129.904 Y121.289 E18.4548
G1 X129.613 Y122.335 E18.49091
G1 X129.081 Y123.568 E18.53557
G1 X128.848 Y123.972 E18.55108
G1 X128.179 Y124.914 E18.58951
G1 X127.768 Y125.383 E18.61025
G1 X126.558 Y126.447 E18.66385
G1 X125.767 Y126.971 E18.6954
G1 X125.439 Y127.149 E18.70782
G1 X124.376 Y127.6 E18.74622
G1 X123.618 Y127.834 E18.77261
G1 X122.918 Y127.98 E18.79639
G1 X121.728 Y128.093 E18.83615
G1 X113.003 Y128.077 E19.12634
G1 X111.711 Y127.904 E19.1697
G1 X110.665 Y127.613 E19.20581
G1 X109.432 Y127.081 E19.25047
G1 X109.028 Y126.848 E19.26599
G1 X108.086 Y126.179 E19.30441
G1 X107.617 Y125.768 E19.32515
G1 X106.553 Y124.558 E19.37875
G1 X106.029 Y123.767 E19.4103
G1 X105.851 Y123.439 E19.42272
G1 X105.414 Y122.41 E19.4599
G1 X105.146 Y121.541 E19.49015
G1 X105.032 Y120.994 E19.50873
G1 X104.903 Y119.63 E19.5543
G1 X104.923 Y114.996 E19.70843
G1 X105.096 Y113.711 E19.75155
G1 X105.387 Y112.665 E19.78766
G1 X105.919 Y111.432 E19.83233
G1 X106.152 Y111.028 E19.84784
G1 X106.821 Y110.086 E19.88627
G1 X107.232 Y109.617 E19.90701
G0 F6000 X107.533 Y109.881
G1 F1200 X108.663 Y108.886 E19.95709
G1 X109.424 Y108.381 E19.98746
G1 X109.752 Y108.203 E19.99988
G1 X110.746 Y107.782 E20.03578
G1 X111.541 Y107.538 E20.06344
G1 X112.088 Y107.424 E20.08202
G1 X113.361 Y107.303 E20.12455
G1 X121.996 Y107.323 E20.41176
G1 X123.183 Y107.482 E20.45159
G1 X124.177 Y107.755 E20.48587
G1 X125.368 Y108.266 E20.52898
G1 X125.772 Y108.499 E20.54449
G1 X126.65 Y109.122 E20.5803
G1 X127.119 Y109.533 E20.60104
G1 X128.114 Y110.663 E20.65112
G1 X128.619 Y111.424 E20.68149
G1 X128.797 Y111.752 E20.6939
G1 X129.218 Y112.746 E20.72981
G1 X129.462 Y113.541 E20.75747
G1 X129.576 Y114.088 E20.77605
G1 X129.697 Y115.368 E20.81881
G1 X129.677 Y120.002 E20.97294
G1 X129.518 Y121.183 E21.01258
G1 X129.245 Y122.177 E21.04686
G1 X128.734 Y123.368 E21.08997
G1 X128.501 Y123.772 E21.10548
G1 X127.878 Y124.65 E21.14129
G1 X127.467 Y125.119 E21.16203
G1 X126.337 Y126.114 E21.21211
G1 X125.576 Y126.619 E21.24248
G1 X125.248 Y126.797 E21.25489
G1 X124.22 Y127.232 E21.29202
G1 X123.536 Y127.442 E21.31582
G1 X122.836 Y127.588 E21.3396
G1 X121.729 Y127.693 E21.37659
G1 X113.004 Y127.677 E21.66678
G1 X111.817 Y127.518 E21.70661
G1 X110.823 Y127.245 E21.7409
G1 X109.632 Y126.734 E21.784
G1 X109.228 Y126.501 E21.79952
G1 X108.35 Y125.878 E21.83532
G1 X107.881 Y125.467 E21.85606
G1 X106.886 Y124.337 E21.90614
G1 X106.381 Y123.576 E21.93652
G1 X106.203 Y123.248 E21.94893
G1 X105.782 Y122.254 E21.98483
G1 X105.538 Y121.459 E22.01249
G1 X105.424 Y120.912 E22.03108
G1 X105.303 Y119.632 E22.07384
G1 X105.323 Y114.998 E22.22797
G1 X105.482 Y113.817 E22.2676
G1 X105.755 Y112.823 E22.30189
G1 X106.266 Y111.632 E22.34499
G1 X106.499 Y111.228 E22.3605
G1 X107.122 Y110.35 E22.39631
G1 X107.533 Y109.881 E22.41705
G0 F6000 X107.798 Y110.181
G1 F1200 X108.885 Y109.219 E22.46533
G1 X109.615 Y108.733 E22.4945
G1 X109.943 Y108.555 E22.50691
G1 X110.864 Y108.164 E22.54019
G1 X111.623 Y107.93 E22.56661
G1 X112.17 Y107.816 E22.58519
G1 X113.36 Y107.703 E22.62495
G1 X121.995 Y107.723 E22.91215
G1 X123.077 Y107.868 E22.94846
G1 X124.071 Y108.141 E22.98275
G1 X125.168 Y108.613 E23.02247
G1 X125.572 Y108.846 E23.03798
G1 X126.418 Y109.448 E23.07251
G1 X126.819 Y109.798 E23.09022
G1 X127.781 Y110.885 E23.1385
G1 X128.267 Y111.615 E23.16766
G1 X128.445 Y111.943 E23.18008
G1 X128.836 Y112.864 E23.21335
G1 X129.07 Y113.623 E23.23977
G1 X129.184 Y114.17 E23.25836
G1 X129.297 Y115.366 E23.29831
G1 X129.277 Y120 E23.45244
G1 X129.132 Y121.077 E23.48859
G1 X128.859 Y122.071 E23.52287
G1 X128.387 Y123.168 E23.56259
G1 X128.154 Y123.572 E23.5781
G1 X127.552 Y124.418 E23.61264
G1 X127.202 Y124.819 E23.63034
G1 X126.115 Y125.781 E23.67862
G1 X125.385 Y126.267 E23.70779
G1 X125.057 Y126.445 E23.7202
G1 X124.102 Y126.85 E23.7547
G1 X123.454 Y127.05 E23.77726
G1 X122.754 Y127.196 E23.80104
G1 X121.73 Y127.293 E23.83525
G1 X113.005 Y127.277 E24.12545
G1 X111.923 Y127.132 E24.16176
G1 X110.929 Y126.859 E24.19604
G1 X109.832 Y126.387 E24.23576
G1 X109.428 Y126.154 E24.25127
G1 X108.582 Y125.552 E24.28581
