;FLAVOR:Marlin
;TIME:1977
;Filament used: 1.09865m
;Layer height: 0.12
;MINX:102.7
;MINY:91.7
;MINZ:0.2
;MAXX:132.3
;MAXY:143.3
;MAXZ:8
;TARGET_MACHINE.NAME:Creality Ender-3
;Generated with Cura_SteamEngine 5.11.0
M140 S60
M105
M190 S60
M104 S200
M105
M109 S200
; Ender 3 Custom Start G-code
G92 E0 ; Reset Extruder
G28 ; Home all axes
G1 Z2.0 F3000 ; Move Z Axis up little to prevent scratching of Heat Bed
G1 X0.1 Y20 Z0.3 F5000.0 ; Move to start position
G1 X0.1 Y200.0 Z0.3 F1500.0 E15 ; Draw the first line
G1 X0.4 Y200.0 Z0.3 F5000.0 ; Move to side a little
G1 X0.4 Y20 Z0.3 F1500.0 E30 ; Draw the second line
G92 E0 ; Reset Extruder
G1 Z2.0 F3000 ; Move Z Axis up little to prevent scratching of Heat Bed
G1 X5 Y20 Z0.3 F5000.0 ; Move over to prevent blob squish
M82 ;absolute extrusion mode
G92 E0
G92 E0
G1 F2700 E-5
;LAYER_COUNT:66
;LAYER:0
M107
;MESH:Top.stl
G0 F6000 X116.375 Y106.296 Z0.2
;TYPE:WALL-INNER
G1 F2700 E0
G1 F1200 X113.306 Y106.299 E0.10208
G1 X112.911 Y106.239 E0.11536
G1 X112.347 Y106.051 E0.13514
G1 X111.706 Y105.676 E0.15984
G1 X111.232 Y105.147 E0.18346
G1 X110.944 Y104.649 E0.2026
G1 X110.778 Y104.15 E0.22009
G1 X110.7 Y103.716 E0.23475
G1 X110.7 Y99.344 E0.38017
G1 X110.761 Y98.903 E0.39497
G1 X110.935 Y98.362 E0.41388
G1 X111.304 Y97.721 E0.43848
G1 X111.849 Y97.232 E0.46283
G1 X112.292 Y96.976 E0.47985
G1 F1095.9 X112.834 Y96.743 E0.50133
G1 F960 X112.932 Y96.693 E0.50591
G1 F935.7 X113.238 Y96.657 E0.51905
G1 F960 X121.754 Y96.657 E0.8731
G1 F937.5 X122.06 Y96.693 E0.88622
G1 F1039 X122.692 Y96.968 E0.9127
G1 F1200 X123.273 Y97.303 E0.935
G1 X123.768 Y97.848 E0.95949
G1 X124.056 Y98.347 E0.97865
G1 X124.237 Y98.892 E0.99775
G1 X124.291 Y99.254 E1.00993
G1 X124.3 Y103.651 E1.15617
G1 X124.244 Y104.06 E1.1699
G1 X124.061 Y104.635 E1.18997
G1 X123.694 Y105.274 E1.21448
G1 X123.151 Y105.762 E1.23876
G1 X122.626 Y106.062 E1.25888
G1 X122.121 Y106.231 E1.27659
G1 X121.739 Y106.291 E1.28945
G1 X116.375 Y106.296 E1.46786
G1 F2700 E-3.53214
G0 F6000 X117.479 Y106.494
G0 X117.501 Y108.017
G0 X117.5 Y127.171
G1 F2700 E1.46786
G1 F1200 X117.135 Y127.168 E1.48
G1 X116.679 Y127.14 E1.49519
G1 X116.178 Y127.085 E1.51196
G1 X115.658 Y126.998 E1.52949
G1 X115.177 Y126.891 E1.54588
G1 X114.724 Y126.768 E1.56149
G1 X114.232 Y126.604 E1.57874
G1 X113.764 Y126.423 E1.59543
G1 X113.338 Y126.232 E1.61096
G1 X112.885 Y126.004 E1.62783
G1 X112.434 Y125.74 E1.64521
G1 X112.071 Y125.505 E1.65959
G1 X111.667 Y125.219 E1.67605
G1 X111.274 Y124.906 E1.69276
G1 X110.904 Y124.578 E1.70921
G1 X110.572 Y124.254 E1.72464
G1 X110.207 Y123.857 E1.74258
G1 X109.889 Y123.474 E1.75913
G1 X109.595 Y123.083 E1.7754
G1 X109.317 Y122.662 E1.79218
G1 X109.066 Y122.243 E1.80843
G1 X108.842 Y121.823 E1.82426
G1 X108.628 Y121.36 E1.84123
G1 X108.444 Y120.913 E1.8573
G1 X108.28 Y120.441 E1.87392
G1 X108.136 Y119.935 E1.89142
G1 X108.025 Y119.462 E1.90758
G1 X107.937 Y118.964 E1.9244
G1 X107.873 Y118.482 E1.94057
G1 X107.837 Y118.01 E1.95632
G1 X107.824 Y117.524 E1.97249
G1 X107.837 Y116.974 E1.99079
G1 X107.869 Y116.583 E2.00383
G1 X107.932 Y116.051 E2.02165
G1 X108.008 Y115.606 E2.03667
G1 X108.129 Y115.095 E2.05413
G1 X108.253 Y114.647 E2.06959
G1 X108.43 Y114.125 E2.08793
G1 X108.602 Y113.693 E2.10339
G1 X108.824 Y113.213 E2.12098
G1 X109.054 Y112.775 E2.13744
G1 X109.282 Y112.387 E2.1524
G1 X109.586 Y111.929 E2.17069
G1 X109.854 Y111.569 E2.18561
G1 X110.198 Y111.149 E2.20367
G1 X110.514 Y110.805 E2.21921
G1 X110.872 Y110.452 E2.23593
G1 X111.253 Y110.107 E2.25302
G1 X111.609 Y109.822 E2.26819
G1 X112.041 Y109.508 E2.28595
G1 X112.47 Y109.23 E2.30296
G1 X112.884 Y108.994 E2.31881
G1 X113.248 Y108.806 E2.33243
G1 X113.719 Y108.595 E2.3496
G1 X114.191 Y108.407 E2.3665
G1 X114.639 Y108.255 E2.38223
G1 X115.174 Y108.108 E2.40069
G1 X115.635 Y108.004 E2.4164
G1 X116.083 Y107.928 E2.43152
G1 X116.594 Y107.867 E2.44863
G1 X117.073 Y107.833 E2.46461
G1 X117.605 Y107.824 E2.4823
G1 X118.108 Y107.842 E2.49904
G1 X118.603 Y107.889 E2.51558
G1 X119.092 Y107.955 E2.53199
G1 X119.589 Y108.053 E2.54884
G1 X120.049 Y108.167 E2.5646
G1 X120.537 Y108.311 E2.58153
G1 X121.014 Y108.485 E2.59841
G1 X121.437 Y108.66 E2.61364
G1 X121.915 Y108.89 E2.63128
G1 X122.359 Y109.132 E2.6481
G1 X122.743 Y109.368 E2.66309
G1 X123.141 Y109.64 E2.67913
G1 X123.538 Y109.939 E2.69566
G1 X123.906 Y110.248 E2.71164
G1 X124.258 Y110.576 E2.72764
G1 X124.615 Y110.944 E2.74469
G1 X124.932 Y111.304 E2.76065
G1 X125.249 Y111.707 E2.7777
G1 X125.548 Y112.127 E2.79485
G1 X125.788 Y112.507 E2.8098
G1 X126.053 Y112.983 E2.82792
G1 X126.266 Y113.41 E2.84379
G1 X126.454 Y113.838 E2.85934
G1 X126.63 Y114.304 E2.8759
G1 X126.797 Y114.822 E2.89401
G1 X126.917 Y115.273 E2.90953
G1 X127.018 Y115.773 E2.92649
G1 X127.097 Y116.28 E2.94356
G1 X127.145 Y116.727 E2.95851
G1 X127.172 Y117.282 E2.977
G1 X127.167 Y117.753 E2.99266
G1 X127.146 Y118.202 E3.00761
G1 X127.102 Y118.685 E3.02374
G1 X127.029 Y119.174 E3.04019
G1 X126.937 Y119.634 E3.05579
G1 X126.802 Y120.155 E3.07369
G1 X126.657 Y120.618 E3.08983
G1 X126.484 Y121.09 E3.10655
G1 X126.296 Y121.526 E3.12234
G1 X126.07 Y121.987 E3.13942
G1 X125.82 Y122.436 E3.15651
G1 X125.553 Y122.859 E3.17315
G1 X125.278 Y123.253 E3.18913
G1 X124.963 Y123.656 E3.20614
G1 X124.641 Y124.029 E3.22253
G1 X124.325 Y124.357 E3.23768
G1 X123.964 Y124.697 E3.25417
G1 X123.55 Y125.049 E3.27225
G1 X123.19 Y125.325 E3.28733
G1 X122.75 Y125.627 E3.30508
G1 X122.318 Y125.886 E3.32184
G1 X121.927 Y126.1 E3.33666
G1 X121.509 Y126.301 E3.35209
G1 X121.028 Y126.511 E3.36954
G1 X120.575 Y126.669 E3.3855
G1 X120.094 Y126.819 E3.40226
G1 X119.646 Y126.931 E3.41762
G1 X119.136 Y127.036 E3.43494
G1 X118.632 Y127.106 E3.45186
G1 X118.13 Y127.152 E3.46863
G1 X117.666 Y127.172 E3.48407
G1 X117.5 Y127.171 E3.4896
G1 F2700 E-1.5104
G0 F6000 X117.565 Y128.219
G0 X117.5 Y138.566
G1 F2700 E3.4896
G1 F1371.4 X113.223 Y138.563 E3.61407
G1 F1283.4 X112.697 Y138.494 E3.63056
G1 F1206 X112.003 Y138.238 E3.65504
G1 F1200 X111.409 Y137.794 E3.67971
G1 X110.921 Y137.256 E3.70387
G1 X110.614 Y136.644 E3.72664
G1 X110.452 Y136.08 E3.74616
G1 X110.405 Y135.748 E3.75731
G1 X110.4 Y131.27 E3.90625
G1 X110.503 Y130.689 E3.92588
G1 X110.76 Y130 E3.95033
G1 X111.203 Y129.408 E3.97493
G1 X111.75 Y128.916 E3.9994
G1 X112.319 Y128.631 E4.02056
G1 X112.893 Y128.455 E4.04053
G1 X113.343 Y128.399 E4.05561
G1 X121.732 Y128.4 E4.33463
G1 X122.288 Y128.5 E4.35342
G1 X123.011 Y128.768 E4.37907
G1 X123.592 Y129.207 E4.40329
G1 X124.077 Y129.743 E4.42733
G1 X124.382 Y130.354 E4.45004
G1 X124.547 Y130.936 E4.47016
G1 X124.591 Y131.248 E4.48064
G1 X124.596 Y135.731 E4.62975
G1 X124.494 Y136.307 E4.64921
G1 X124.237 Y136.999 E4.67376
G1 X123.795 Y137.586 E4.6982
G1 X123.253 Y138.077 E4.72252
G1 X122.639 Y138.384 E4.74535
G1 F1230.8 X122.143 Y138.517 E4.76201
G1 F1318.7 X121.746 Y138.568 E4.77412
G1 F1375.4 X117.5 Y138.566 E4.89734
G0 F6000 X117.5 Y138.915
G1 F1379.3 X121.772 Y138.914 E5.02095
G1 F1283.4 X122.665 Y138.888 E5.04874
G1 F1200 X127.536 Y138.887 E5.21075
G1 X127.699 Y138.824 E5.21656
G1 X127.824 Y138.699 E5.22244
G1 X127.886 Y138.535 E5.22827
G1 X127.888 Y96.496 E6.62649
G1 X127.774 Y96.234 E6.636
G1 X127.559 Y96.112 E6.64422
G1 X122.702 Y96.112 E6.80576
G1 F1090.9 X122.244 Y96.15 E6.82258
G1 F956.2 X122.1 Y96.173 E6.82866
G1 F941.2 X121.652 Y96.158 E6.84767
G1 F969.7 X113.34 Y96.157 E7.18979
G1 F941.2 X112.892 Y96.172 E7.2088
G1 F960 X112.738 Y96.147 E7.21528
G1 F1095.9 X112.27 Y96.11 E7.23238
G1 F1200 X107.445 Y96.109 E7.39286
G1 X107.224 Y96.233 E7.40129
G1 X107.108 Y96.5 E7.41097
G1 X107.109 Y138.499 E8.80787
G1 X107.226 Y138.764 E8.8175
G1 F1206 X107.441 Y138.888 E8.82571
G1 F1212.1 X112.71 Y138.891 E8.99921
G1 F1297.3 X113.324 Y138.915 E9.01811
G1 F1387.3 X117.5 Y138.915 E9.13826
G0 F6000 X117.5 Y139.288
;TYPE:WALL-OUTER
G1 F1200 X127.61 Y139.287 E9.47452
G1 X127.899 Y139.176 E9.48481
G1 X128.176 Y138.899 E9.49784
G1 X128.287 Y138.607 E9.50823
G1 X128.288 Y96.435 E10.91088
G1 X128.194 Y96.138 E10.92124
G1 X128.05 Y95.932 E10.9296
G1 X127.729 Y95.749 E10.94189
G1 X127.485 Y95.712 E10.9501
G1 X107.513 Y95.709 E11.61437
G1 X107.272 Y95.748 E11.62249
G1 X106.95 Y95.929 E11.63478
G1 X106.802 Y96.138 E11.64329
G1 X106.708 Y96.439 E11.65378
G1 X106.709 Y138.561 E13.05477
G1 X106.802 Y138.858 E13.06512
G1 X106.95 Y139.068 E13.07366
G1 X107.271 Y139.251 E13.08595
G1 X107.511 Y139.288 E13.09403
G1 X117.5 Y139.288 E13.42626
G0 F6000 X117.501 Y138.979
G0 X117.5 Y138.199
G1 F1200 X113.324 Y138.197 E13.56516
G1 X112.777 Y138.1 E13.58363
G1 X112.195 Y137.882 E13.60431
G1 X111.667 Y137.483 E13.62632
G1 X111.254 Y137.028 E13.64675
G1 X110.984 Y136.481 E13.66704
G1 X110.845 Y136.004 E13.68357
G1 X110.801 Y135.692 E13.69405
G1 X110.8 Y131.324 E13.83933
G1 X110.896 Y130.777 E13.8578
G1 X111.114 Y130.195 E13.87847
G1 X111.513 Y129.667 E13.90048
G1 X111.965 Y129.258 E13.92076
G1 X112.487 Y128.994 E13.94021
G1 X112.994 Y128.845 E13.95779
G1 X113.312 Y128.801 E13.96847
G1 X121.712 Y128.803 E14.24785
G1 X122.195 Y128.889 E14.26417
G1 X122.789 Y129.108 E14.28523
G1 X123.329 Y129.513 E14.30768
G1 X123.743 Y129.97 E14.32819
G1 X124.012 Y130.515 E14.3484
G1 X124.151 Y130.992 E14.36493
G1 X124.195 Y131.304 E14.37541
G1 X124.193 Y135.712 E14.52202
G1 X124.1 Y136.218 E14.53913
G1 X123.882 Y136.806 E14.55999
G1 X123.483 Y137.329 E14.58186
G1 X123.026 Y137.743 E14.60237
G1 X122.481 Y138.012 E14.62259
G1 X122.007 Y138.15 E14.63901
G1 X121.66 Y138.2 E14.65067
G1 X117.5 Y138.199 E14.78903
G1 F2700 E9.78903
G0 F6000 X117.499 Y138.509
G0 X113.284 Y138.448
G0 X112.733 Y138.349
G0 X112.073 Y138.104
G0 X111.515 Y137.683
G0 X111.049 Y137.169
G0 X110.759 Y136.593
G0 X110.552 Y135.701
G0 X110.552 Y131.284
G0 X110.651 Y130.733
G0 X110.896 Y130.073
G0 X111.317 Y129.515
G0 X111.831 Y129.049
G0 X112.407 Y128.759
G0 X113.136 Y128.591
G0 X117.496 Y128.219
G0 X117.502 Y127.351
G0 X117.5 Y126.771
G1 F2700 E14.78903
G1 F1200 X117.159 Y126.768 E14.80037
G1 X116.694 Y126.739 E14.81587
G1 X116.211 Y126.686 E14.83203
G1 X115.744 Y126.608 E14.84778
G1 X115.283 Y126.505 E14.86349
G1 X114.83 Y126.382 E14.8791
G1 X114.376 Y126.231 E14.89501
G1 X113.928 Y126.058 E14.91099
G1 X113.492 Y125.862 E14.92689
G1 X113.054 Y125.641 E14.9432
G1 X112.651 Y125.404 E14.95875
G1 X112.301 Y125.178 E14.97261
G1 X111.915 Y124.905 E14.98834
G1 X111.539 Y124.606 E15.00431
G1 X111.184 Y124.292 E15.02008
G1 X110.844 Y123.96 E15.03588
G1 X110.514 Y123.601 E15.0521
G1 X110.208 Y123.233 E15.06802
G1 X109.929 Y122.863 E15.08343
G1 X109.66 Y122.456 E15.09966
G1 X109.419 Y122.055 E15.11522
G1 X109.19 Y121.624 E15.13145
G1 X108.998 Y121.208 E15.14669
G1 X108.81 Y120.75 E15.16316
G1 X108.655 Y120.299 E15.17902
G1 X108.525 Y119.843 E15.19479
G1 X108.419 Y119.392 E15.2102
G1 X108.333 Y118.911 E15.22645
G1 X108.272 Y118.452 E15.24185
G1 X108.236 Y117.97 E15.25793
G1 X108.224 Y117.514 E15.2731
G1 X108.236 Y117.007 E15.28997
G1 X108.269 Y116.608 E15.30328
G1 X108.326 Y116.118 E15.31969
G1 X108.405 Y115.661 E15.33512
G1 X108.515 Y115.202 E15.35081
G1 X108.642 Y114.743 E15.36665
G1 X108.802 Y114.273 E15.38317
G1 X108.978 Y113.832 E15.39896
G1 X109.178 Y113.399 E15.41482
G1 X109.399 Y112.978 E15.43064
G1 X109.633 Y112.581 E15.44597
G1 X109.907 Y112.168 E15.46245
G1 X110.181 Y111.801 E15.47768
G1 X110.492 Y111.42 E15.49404
G1 X110.815 Y111.069 E15.50991
G1 X111.141 Y110.748 E15.52512
G1 X111.503 Y110.419 E15.54139
G1 X111.866 Y110.13 E15.55683
G1 X112.259 Y109.844 E15.57299
G1 X112.668 Y109.578 E15.58922
G1 X113.068 Y109.35 E15.60453
G1 X113.444 Y109.156 E15.61861
G1 X113.889 Y108.958 E15.63481
G1 X114.319 Y108.786 E15.65021
G1 X114.779 Y108.631 E15.66635
G1 X115.279 Y108.494 E15.6836
G1 X115.702 Y108.398 E15.69802
G1 X116.16 Y108.321 E15.71347
G1 X116.649 Y108.264 E15.72984
G1 X117.112 Y108.232 E15.74528
G1 X117.591 Y108.224 E15.76121
G1 X118.071 Y108.24 E15.77719
G1 X118.551 Y108.285 E15.79322
G1 X119.015 Y108.347 E15.80879
G1 X119.493 Y108.441 E15.825
G1 X119.937 Y108.551 E15.84021
G1 X120.401 Y108.687 E15.85629
G1 X120.853 Y108.851 E15.87228
G1 X121.287 Y109.031 E15.88791
G1 X121.724 Y109.242 E15.90405
G1 X122.149 Y109.473 E15.92014
G1 X122.541 Y109.714 E15.93545
G1 X122.901 Y109.96 E15.94995
G1 X123.281 Y110.246 E15.96577
G1 X123.633 Y110.541 E15.98104
G1 X123.992 Y110.876 E15.99737
G1 X124.315 Y111.208 E16.01278
G1 X124.638 Y111.576 E16.02906
G1 X124.923 Y111.939 E16.04441
G1 X125.21 Y112.341 E16.06084
G1 X125.455 Y112.73 E16.07613
G1 X125.695 Y113.162 E16.09257
G1 X125.9 Y113.571 E16.10779
G1 X126.092 Y114.009 E16.12369
G1 X126.259 Y114.454 E16.1395
G1 X126.41 Y114.924 E16.15592
G1 X126.53 Y115.376 E16.17148
G1 X126.622 Y115.836 E16.18708
G1 X126.699 Y116.322 E16.20344
G1 X126.748 Y116.782 E16.21883
G1 X126.772 Y117.278 E16.23535
G1 X126.768 Y117.734 E16.25051
G1 X126.748 Y118.166 E16.2649
G1 X126.706 Y118.626 E16.28026
G1 X126.637 Y119.096 E16.29606
G1 X126.542 Y119.567 E16.31204
G1 X126.42 Y120.036 E16.32816
G1 X126.281 Y120.481 E16.34367
G1 X126.116 Y120.932 E16.35964
G1 X125.924 Y121.376 E16.37573
G1 X125.72 Y121.793 E16.39117
G1 X125.482 Y122.223 E16.40751
G1 X125.225 Y122.631 E16.42355
G1 X124.969 Y122.999 E16.43846
G1 X124.66 Y123.395 E16.45517
G1 X124.353 Y123.751 E16.4708
G1 X124.03 Y124.086 E16.48628
G1 X123.682 Y124.413 E16.50216
G1 X123.306 Y124.731 E16.51854
G1 X122.938 Y125.013 E16.53396
G1 X122.544 Y125.284 E16.54987
G1 X122.125 Y125.536 E16.56613
G1 X121.754 Y125.739 E16.5802
G1 X121.337 Y125.939 E16.59558
G1 X120.909 Y126.128 E16.61114
G1 X120.456 Y126.287 E16.62711
G1 X119.997 Y126.431 E16.64311
G1 X119.541 Y126.544 E16.65873
G1 X119.06 Y126.643 E16.67507
G1 X118.595 Y126.708 E16.69068
G1 X118.113 Y126.752 E16.70678
G1 X117.638 Y126.772 E16.72259
G1 X117.5 Y126.771 E16.72718
G1 F2700 E11.72718
G0 F6000 X117.498 Y127.081
G0 X115.705 Y126.854
G0 X114.291 Y126.467
G0 X112.95 Y125.868
G0 X111.767 Y125.105
G0 X110.668 Y124.135
G0 X109.729 Y123.008
G0 X108.977 Y121.749
G0 X108.424 Y120.39
G0 X108.089 Y118.963
G0 X107.976 Y117.5
G0 X108.08 Y116.097
G0 X108.407 Y114.667
G0 X108.951 Y113.305
G0 X109.695 Y112.041
G0 X110.627 Y110.907
G0 X111.72 Y109.93
G0 X112.952 Y109.133
G0 X114.235 Y108.554
G0 X115.648 Y108.158
G0 X116.676 Y108.027
G0 X116.917 Y106.495
G0 X116.79 Y105.897
G1 F2700 E16.72718
G1 F1200 X113.331 Y105.9 E16.84223
G1 X112.997 Y105.848 E16.85347
G1 X112.504 Y105.682 E16.87078
G1 X111.969 Y105.369 E16.89139
G1 X111.546 Y104.892 E16.9126
G1 X111.306 Y104.468 E16.9288
G1 X111.15 Y103.992 E16.94546
G1 X111.102 Y103.692 E16.95557
G1 X111.1 Y99.344 E17.10018
G1 X111.157 Y98.978 E17.1125
G1 X111.297 Y98.542 E17.12773
G1 X111.617 Y97.977 E17.14933
G1 X112.104 Y97.546 E17.17096
G1 X112.528 Y97.306 E17.18716
G1 X113.004 Y97.15 E17.20382
G1 X113.308 Y97.102 E17.21406
G1 X121.684 Y97.102 E17.49265
G1 X122.018 Y97.157 E17.50391
G1 X122.454 Y97.297 E17.51914
G1 X123.02 Y97.618 E17.54078
G1 X123.429 Y98.069 E17.56103
G1 X123.678 Y98.492 E17.57735
G1 X123.842 Y98.972 E17.59422
G1 X123.895 Y99.311 E17.60564
G1 X123.898 Y103.684 E17.75108
G1 X123.85 Y103.991 E17.76142
G1 X123.682 Y104.492 E17.77899
G1 X123.377 Y105.021 E17.7993
G1 X122.893 Y105.454 E17.8209
G1 X122.468 Y105.694 E17.83714
G1 X122.014 Y105.845 E17.85305
G1 X121.687 Y105.895 E17.86405
G1 X116.79 Y105.897 E18.02693
G1 F2700 E13.02693
G0 F6000 X116.79 Y106.21
G0 X121.766 Y106.49
G0 X121.962 Y108.711
G0 X127.447 Y115.695
;TYPE:SKIN
G1 F2700 E18.02693
G1 F1002.1 X127.269 Y115.2 E18.04788
G1 F1200 X127.142 Y114.72 E18.06439
G1 X126.983 Y114.226 E18.08165
G1 X126.8 Y113.734 E18.09911
G1 X126.596 Y113.27 E18.11597
G1 X126.372 Y112.815 E18.13284
G1 X126.12 Y112.359 E18.15017
G1 X125.822 Y111.885 E18.16879
G1 X125.535 Y111.486 E18.18514
G1 X125.214 Y111.076 E18.20246
G1 X124.89 Y110.711 E18.21869
G1 X124.504 Y110.312 E18.23715
G1 X124.173 Y110.002 E18.25224
G1 X123.733 Y109.635 E18.27129
G1 X123.348 Y109.347 E18.28729
G1 X122.938 Y109.063 E18.30387
G1 X122.514 Y108.805 E18.32038
G1 X122.056 Y108.557 E18.3377
G1 X121.567 Y108.323 E18.35573
G1 X121.171 Y108.155 E18.37004
G1 X120.648 Y107.967 E18.38853
