;FLAVOR:Marlin
;TIME:2458
;Filament used: 1.48172m
;Layer height: 0.12
;MINX:98.264
;MINY:90.836
;MINZ:0.2
;MAXX:147.951
;MAXY:143.948
;MAXZ:5.24
;TARGET_MACHINE.NAME:Creality Ender-3
;Generated with Cura_SteamEngine 5.11.0
M140 S60
M105
M190 S60
M104 S200
M105
M109 S200
; Ender 3 Custom Start G-code
G92 E0 ; Reset Extruder
G28 ; Home all axes
G1 Z2.0 F3000 ; Move Z Axis up little to prevent scratching of Heat Bed
G1 X0.1 Y20 Z0.3 F5000.0 ; Move to start position
G1 X0.1 Y200.0 Z0.3 F1500.0 E15 ; Draw the first line
G1 X0.4 Y200.0 Z0.3 F5000.0 ; Move to side a little
G1 X0.4 Y20 Z0.3 F1500.0 E30 ; Draw the second line
G92 E0 ; Reset Extruder
G1 Z2.0 F3000 ; Move Z Axis up little to prevent scratching of Heat Bed
G1 X5 Y20 Z0.3 F5000.0 ; Move over to prevent blob squish
M82 ;absolute extrusion mode
G92 E0
G92 E0
G1 F2700 E-5
;LAYER_COUNT:43
;LAYER:0
M107
;MESH:Top.stl
G0 F6000 X110.642 Y126.597 Z0.2
;TYPE:WALL-INNER
G1 F2700 E0
G1 F1200 X108.874 Y126.601 E0.0588
G1 X108.394 Y126.458 E0.07546
G1 X108.012 Y126.213 E0.09056
G1 X107.72 Y125.866 E0.10564
G1 X107.468 Y125.332 E0.12528
G1 X107.464 Y123.668 E0.18062
G1 X107.72 Y123.128 E0.2005
G1 X108.021 Y122.784 E0.2157
G1 X108.377 Y122.547 E0.22993
G1 X108.878 Y122.402 E0.24728
G1 X111.255 Y122.402 E0.32634
G1 X111.722 Y122.538 E0.34251
G1 X112.119 Y122.78 E0.35798
G1 X112.414 Y123.136 E0.37335
G1 X112.665 Y123.669 E0.39295
G1 X112.659 Y125.079 E0.43985
G1 X112.606 Y125.46 E0.45264
G1 X112.413 Y125.861 E0.46744
G1 X112.114 Y126.21 E0.48273
G1 X111.735 Y126.458 E0.49779
G1 X111.249 Y126.596 E0.5146
G1 X110.642 Y126.597 E0.53478
G1 F2700 E-4.46522
G0 F6000 X110.943 Y126.796
G0 X110.627 Y131.431
G0 X110.973 Y141.416
G1 F2700 E0.53478
G1 F827.6 X110.654 Y141.441 E0.55022
G1 F890.5 X110.236 Y141.457 E0.56896
G1 F917.8 X109.866 Y141.456 E0.58505
G1 F855.6 X109.19 Y141.42 E0.61663
G0 F6000 X111.586 Y141.518
G1 F1200 X120.088 Y141.515 E0.89941
G1 X120.088 Y93.513 E2.49596
G1 X120.01 Y93.476 E2.49883
G1 X100.082 Y93.476 E3.16164
G1 X100.05 Y93.519 E3.16343
G1 X100.044 Y141.52 E4.75995
G1 X108.761 Y141.519 E5.04987
G1 F961.9 X109.19 Y141.42 E5.06814
G1 X108.803 Y141.234 E5.08596
G1 F1200 X108.504 Y141.143 E5.09635
G1 X108.172 Y141.017 E5.10816
G1 X107.82 Y140.853 E5.12108
G1 X107.492 Y140.669 E5.13359
G1 X107.21 Y140.48 E5.14488
G1 X106.916 Y140.252 E5.15725
G1 X106.66 Y140.021 E5.16872
G1 X106.408 Y139.758 E5.18084
G1 X106.175 Y139.478 E5.19295
G1 X105.96 Y139.179 E5.2052
G1 X105.79 Y138.891 E5.21632
G1 X105.627 Y138.572 E5.22824
G1 X105.482 Y138.238 E5.24035
G1 X105.378 Y137.925 E5.25132
G1 X105.278 Y137.548 E5.26429
G1 X105.22 Y137.244 E5.27459
G1 X105.176 Y136.847 E5.28787
G1 X105.164 Y136.485 E5.29992
G1 X105.179 Y136.111 E5.31237
G1 X105.221 Y135.759 E5.32416
G1 X105.282 Y135.434 E5.33516
G1 X105.375 Y135.079 E5.34736
G1 X105.496 Y134.728 E5.35971
G1 X105.642 Y134.389 E5.37199
G1 X105.774 Y134.133 E5.38157
G1 X105.983 Y133.787 E5.39501
G1 X106.198 Y133.488 E5.40726
G1 X106.424 Y133.219 E5.41895
G1 X106.671 Y132.964 E5.43075
G1 X106.941 Y132.721 E5.44284
G1 X107.217 Y132.513 E5.45433
G1 X107.503 Y132.321 E5.46579
G1 X107.811 Y132.147 E5.47755
G1 X108.17 Y131.979 E5.49074
G1 X108.494 Y131.857 E5.50225
G1 X108.84 Y131.754 E5.51426
G1 X109.145 Y131.686 E5.52465
G1 X109.545 Y131.625 E5.53811
G1 X109.888 Y131.604 E5.54954
G1 X110.264 Y131.601 E5.56205
G1 X110.564 Y131.625 E5.57205
G1 X110.989 Y131.685 E5.58633
G1 X111.318 Y131.759 E5.59755
G1 X111.659 Y131.866 E5.60943
G1 X111.993 Y131.993 E5.62132
G1 X112.3 Y132.138 E5.63261
G1 X112.643 Y132.329 E5.64567
G1 X112.928 Y132.522 E5.65712
G1 X113.194 Y132.73 E5.66835
G1 X113.472 Y132.979 E5.68076
G1 X113.72 Y133.238 E5.69269
G1 X113.953 Y133.518 E5.7048
G1 X114.165 Y133.811 E5.71683
G1 X114.342 Y134.105 E5.72825
G1 X114.508 Y134.432 E5.74044
G1 X114.639 Y134.743 E5.75167
G1 X114.761 Y135.099 E5.76418
G1 X114.85 Y135.444 E5.77603
G1 X114.913 Y135.784 E5.78753
G1 X114.952 Y136.149 E5.79974
G1 X114.964 Y136.511 E5.81179
G1 X114.949 Y136.881 E5.82411
G1 X114.912 Y137.216 E5.83532
G1 X114.856 Y137.536 E5.84612
G1 X114.768 Y137.872 E5.85767
G1 X114.632 Y138.268 E5.8716
G1 X114.488 Y138.604 E5.88376
G1 X114.336 Y138.9 E5.89483
G1 X114.149 Y139.209 E5.90684
G1 X113.934 Y139.508 E5.91909
G1 X113.708 Y139.777 E5.93077
G1 X113.457 Y140.035 E5.94275
G1 X113.191 Y140.271 E5.95457
G1 X112.913 Y140.484 E5.96622
G1 X112.615 Y140.681 E5.9781
G1 X112.301 Y140.859 E5.99011
G1 X111.962 Y141.017 E6.00255
G1 X111.638 Y141.139 E6.01406
G1 X111.334 Y141.23 E6.02462
G1 F956.2 X110.973 Y141.416 E6.04157
G1 X111.376 Y141.518 E6.05892
G1 F1200 X111.586 Y141.518 E6.0659
G0 F6000 X111.612 Y141.917
;TYPE:WALL-OUTER
G1 F1200 X120.099 Y141.915 E6.34818
G1 X120.359 Y141.795 E6.35771
G1 X120.455 Y141.637 E6.36386
G1 X120.488 Y141.479 E6.36922
G1 X120.488 Y93.516 E7.96448
G1 X120.405 Y93.251 E7.97372
G1 X120.212 Y93.111 E7.98165
G1 X120.054 Y93.076 E7.98703
G1 X100.085 Y93.076 E8.6512
G1 X99.818 Y93.157 E8.66048
G1 X99.676 Y93.355 E8.66859
G1 X99.645 Y93.509 E8.67381
G1 X99.644 Y141.481 E10.26937
G1 X99.674 Y141.642 E10.27481
G1 X99.768 Y141.794 E10.28076
G1 X100.051 Y141.92 E10.29106
G1 X111.612 Y141.917 E10.67558
G0 F6000 X111.612 Y141.609
G0 X111.65 Y141.041
G0 X111.538 Y140.75
G1 F1200 X111.522 Y140.756 E10.67615
G1 X111.204 Y140.852 E10.6872
G1 X110.884 Y140.922 E10.69809
G1 X110.564 Y140.972 E10.70886
G1 X110.252 Y140.996 E10.71927
G1 X109.9 Y140.996 E10.73098
G1 X109.584 Y140.972 E10.74152
G1 X109.244 Y140.924 E10.75294
G1 X108.921 Y140.852 E10.76395
G1 X108.608 Y140.755 E10.77485
G1 X108.303 Y140.638 E10.78571
G1 X108.014 Y140.503 E10.79632
G1 X107.713 Y140.335 E10.80779
G1 X107.454 Y140.163 E10.81813
G1 X107.182 Y139.954 E10.82954
G1 X106.958 Y139.754 E10.83952
G1 X106.714 Y139.501 E10.85121
G1 X106.498 Y139.242 E10.86243
G1 X106.304 Y138.975 E10.87341
G1 X106.146 Y138.708 E10.88373
G1 X105.993 Y138.41 E10.89487
G1 X105.862 Y138.112 E10.9057
G1 X105.754 Y137.788 E10.91705
G1 X105.671 Y137.474 E10.92786
G1 X105.614 Y137.175 E10.93798
G1 X105.576 Y136.832 E10.94946
G1 X105.564 Y136.516 E10.95998
G1 X105.577 Y136.157 E10.97192
G1 X105.615 Y135.831 E10.98284
G1 X105.67 Y135.534 E10.99289
G1 X105.754 Y135.207 E11.00412
G1 X105.864 Y134.885 E11.01543
G1 X105.998 Y134.572 E11.02676
G1 X106.136 Y134.304 E11.03678
G1 X106.309 Y134.019 E11.04787
G1 X106.506 Y133.744 E11.05912
G1 X106.712 Y133.497 E11.06982
G1 X106.941 Y133.26 E11.08078
G1 X107.183 Y133.04 E11.09166
G1 X107.44 Y132.845 E11.10239
G1 X107.714 Y132.661 E11.11337
G1 X108.002 Y132.499 E11.12436
G1 X108.312 Y132.353 E11.13576
G1 X108.61 Y132.24 E11.14636
G1 X108.928 Y132.144 E11.1574
G1 X109.245 Y132.074 E11.1682
G1 X109.571 Y132.024 E11.17917
G1 X109.893 Y132.004 E11.1899
G1 X110.232 Y132 E11.20118
G1 X110.544 Y132.025 E11.21159
G1 X110.903 Y132.076 E11.22365
G1 X111.208 Y132.143 E11.23403
G1 X111.519 Y132.24 E11.24487
G1 X111.807 Y132.348 E11.2551
G1 X112.121 Y132.496 E11.26665
G1 X112.42 Y132.661 E11.278
G1 X112.686 Y132.84 E11.28867
G1 X112.929 Y133.03 E11.29893
G1 X113.184 Y133.257 E11.31028
G1 X113.414 Y133.495 E11.32129
G1 X113.63 Y133.754 E11.33251
G1 X113.823 Y134.019 E11.34341
G1 X113.986 Y134.288 E11.35387
G1 X114.14 Y134.589 E11.36512
G1 X114.261 Y134.874 E11.37542
G1 X114.37 Y135.186 E11.38641
G1 X114.457 Y135.518 E11.39782
G1 X114.515 Y135.829 E11.40835
G1 X114.552 Y136.164 E11.41956
G1 X114.564 Y136.496 E11.43061
G1 X114.551 Y136.838 E11.44199
G1 X114.518 Y137.147 E11.45232
G1 X114.458 Y137.484 E11.46371
G1 X114.378 Y137.781 E11.47394
G1 X114.27 Y138.097 E11.48505
G1 X114.131 Y138.423 E11.49683
G1 X113.992 Y138.695 E11.50699
G1 X113.823 Y138.977 E11.51793
G1 X113.626 Y139.252 E11.52918
G1 X113.42 Y139.499 E11.53988
G1 X113.19 Y139.737 E11.55089
G1 X112.947 Y139.955 E11.56174
G1 X112.691 Y140.151 E11.57247
G1 X112.416 Y140.334 E11.58345
G1 X112.13 Y140.497 E11.5944
G1 X111.82 Y140.643 E11.6058
G1 X111.538 Y140.75 E11.61583
G1 F2700 E6.61583
G0 F6000 X111.65 Y141.041
G0 X112.841 Y140.355
G0 X113.604 Y139.668
G0 X114.213 Y138.813
G0 X114.618 Y137.856
G0 X114.803 Y136.846
G0 X114.764 Y135.797
G0 X114.499 Y134.792
G0 X114.028 Y133.879
G0 X113.354 Y133.073
G0 X112.54 Y132.446
G0 X111.6 Y132.005
G0 X110.574 Y131.778
G0 X110.28 Y131.402
G0 X110.271 Y126.798
G0 X110.617 Y126.193
G1 F2700 E11.61583
G1 F1200 X108.913 Y126.196 E11.67251
G1 X108.578 Y126.096 E11.68413
G1 X108.297 Y125.921 E11.69514
G1 X108.052 Y125.649 E11.70732
G1 X107.87 Y125.231 E11.72248
G1 X107.868 Y123.76 E11.77141
G1 X108.056 Y123.346 E11.78653
G1 X108.281 Y123.088 E11.79792
G1 X108.563 Y122.903 E11.80914
G1 X108.943 Y122.8 E11.82223
G1 X111.19 Y122.8 E11.89697
G1 X111.561 Y122.904 E11.90978
G1 X111.851 Y123.088 E11.9212
G1 X112.077 Y123.352 E11.93276
G1 X112.26 Y123.761 E11.94767
G1 X112.263 Y125.024 E11.98967
G1 X112.222 Y125.319 E11.99958
G1 X112.077 Y125.645 E12.01145
G1 X111.852 Y125.908 E12.02296
G1 X111.565 Y126.09 E12.03426
G1 X111.21 Y126.192 E12.04655
G1 X110.617 Y126.193 E12.06627
G1 F2700 E7.06627
G0 F6000 X110.617 Y126.51
G0 X110.896 Y126.796
G0 X110.507 Y131.44
G0 X110.941 Y131.314
;TYPE:SKIN
G1 F2700 E12.06627
G1 F1200 X110.646 Y131.27 E12.07619
G1 X110.289 Y131.24 E12.08811
G1 X109.838 Y131.244 E12.10311
G1 X109.522 Y131.264 E12.11364
G1 X109.126 Y131.322 E12.12695
G1 X108.765 Y131.4 E12.13923
G1 X108.399 Y131.508 E12.15193
G1 X107.989 Y131.66 E12.16647
G1 X107.649 Y131.823 E12.17901
G1 X107.305 Y132.017 E12.19215
G1 X107.038 Y132.195 E12.20282
G1 X106.728 Y132.427 E12.2157
G1 X106.422 Y132.698 E12.22929
G1 X106.127 Y133.005 E12.24345
G1 X105.888 Y133.297 E12.256
G1 X105.648 Y133.636 E12.26982
G1 X105.48 Y133.912 E12.28057
G1 X105.315 Y134.226 E12.29236
G1 X105.143 Y134.634 E12.30709
G1 X105.03 Y134.977 E12.3191
G1 X104.934 Y135.332 E12.33133
G1 X104.867 Y135.678 E12.34305
G1 X104.817 Y136.13 E12.35818
G1 X104.804 Y136.468 E12.36943
G1 X104.816 Y136.859 E12.38244
G1 X104.865 Y137.295 E12.39703
G1 X104.931 Y137.649 E12.40901
G1 X105.034 Y138.033 E12.42223
G1 X105.166 Y138.418 E12.43577
G1 X105.293 Y138.705 E12.44621
G1 X105.469 Y139.055 E12.45924
G1 X105.684 Y139.415 E12.47319
G1 X105.874 Y139.678 E12.48398
G1 X106.143 Y140.003 E12.49801
G1 X106.387 Y140.258 E12.50975
G1 X106.678 Y140.521 E12.52279
G1 X107.047 Y140.809 E12.53836
G1 X107.343 Y141 E12.55008
G1 X107.622 Y141.156 E12.56071
G1 X100.404 Y141.159 E12.80078
G1 X100.404 Y93.836 E14.37475
G1 X119.728 Y93.836 E15.01747
G1 X119.728 Y141.155 E16.59131
G1 X112.508 Y141.152 E16.83144
G1 X112.792 Y140.99 E16.84232
G1 X113.102 Y140.788 E16.85463
G1 X113.409 Y140.556 E16.86742
G1 X113.713 Y140.287 E16.88093
G1 X114.001 Y139.987 E16.89476
G1 X114.235 Y139.704 E16.90697
G1 X114.439 Y139.421 E16.91857
G1 X114.647 Y139.079 E16.93189
G1 X114.807 Y138.763 E16.94367
G1 X114.988 Y138.344 E16.95885
G1 X115.098 Y138.025 E16.97007
G1 X115.214 Y137.587 E16.98514
G1 X115.307 Y136.921 E17.00751
G1 X115.324 Y136.521 E17.02082
G1 X115.312 Y136.133 E17.03374
G1 X115.259 Y135.672 E17.04917
G1 X115.206 Y135.38 E17.05904
G1 X115.094 Y134.96 E17.0735
G1 X114.973 Y134.614 E17.08569
G1 X114.817 Y134.242 E17.09911
G1 X114.634 Y133.891 E17.11227
G1 X114.468 Y133.613 E17.12304
G1 X114.254 Y133.318 E17.13516
G1 X113.986 Y132.995 E17.14912
G1 X113.673 Y132.669 E17.16415
G1 X113.441 Y132.465 E17.17443
G1 X113.104 Y132.202 E17.18865
G1 X112.839 Y132.025 E17.19925
G1 X112.49 Y131.829 E17.21256
G1 X112.142 Y131.663 E17.22538
G1 X111.784 Y131.525 E17.23814
G1 X111.379 Y131.4 E17.25224
G1 X111.033 Y131.328 E17.264
G1 X110.941 Y131.314 E17.26709
G1 F2700 E12.26709
G0 F6000 X110.905 Y131.57
G0 X110.28 Y131.402
G0 X110.271 Y126.798
G0 X110.665 Y126.957
G1 F2700 E17.26709
G1 F1200 X111.286 Y126.956 E17.28774
G1 X111.836 Y126.805 E17.30671
G1 X112.362 Y126.482 E17.32724
G1 X112.741 Y126.027 E17.34694
G1 X112.962 Y125.503 E17.36586
G1 X113.022 Y125.077 E17.38016
G1 X113.019 Y123.583 E17.42985
G1 X112.729 Y122.962 E17.45265
G1 X112.382 Y122.53 E17.47108
G1 X111.908 Y122.218 E17.48995
G1 X111.31 Y122.04 E17.51071
G1 X108.825 Y122.042 E17.59336
G1 X108.237 Y122.204 E17.61364
G1 X107.755 Y122.53 E17.633
G1 X107.391 Y122.958 E17.65168
G1 X107.104 Y123.591 E17.6748
G1 X107.112 Y125.403 E17.73507
G1 X107.408 Y126.066 E17.75922
G1 X107.792 Y126.499 E17.77847
G1 X108.239 Y126.784 E17.7961
G1 X108.834 Y126.96 E17.81674
G1 X110.665 Y126.957 E17.87764
G1 F2700 E12.87764
G0 F6000 X110.665 Y126.697
G0 X108.851 Y126.782
G0 X106.24 Y133.124
G0 X100.795 Y140.958
G1 F2700 E17.87764
G1 F1200 X100.604 Y140.767 E17.88662
G0 F6000 X100.604 Y140.202
G1 F1200 X101.36 Y140.958 E17.92218
G0 F6000 X101.926 Y140.958
G1 F1200 X100.604 Y139.636 E17.98436
G0 F6000 X100.604 Y139.07
G1 F1200 X102.491 Y140.957 E18.07312
G0 F6000 X103.057 Y140.957
G1 F1200 X100.604 Y138.505 E18.18848
G0 F6000 X100.604 Y137.939
G1 F1200 X103.622 Y140.957 E18.33044
G0 F6000 X104.187 Y140.957
G1 F1200 X100.604 Y137.373 E18.49899
G0 F6000 X100.604 Y136.807
G1 F1200 X104.753 Y140.957 E18.69417
G0 F6000 X105.319 Y140.957
G1 F1200 X100.604 Y136.242 E18.91595
G0 F6000 X100.604 Y135.676
G1 F1200 X105.884 Y140.956 E19.16431
G0 F6000 X106.449 Y140.956
G1 F1200 X100.604 Y135.11 E19.43926
G0 F6000 X100.604 Y134.545
G1 F1200 X105.415 Y139.357 E19.66558
G0 F6000 X105.811 Y139.12
G0 X105.344 Y138.137
G0 X104.91 Y138.285
G1 F1200 X100.604 Y133.979 E19.86812
G0 F6000 X100.604 Y133.413
G1 F1200 X104.702 Y137.512 E20.0609
G0 F6000 X104.618 Y136.862
G1 F1200 X100.604 Y132.848 E20.24971
G0 F6000 X100.604 Y132.282
G1 F1200 X104.611 Y136.29 E20.43821
G0 F6000 X104.657 Y135.769
G1 F1200 X100.604 Y131.716 E20.62885
G0 F6000 X100.604 Y131.151
G1 F1200 X104.74 Y135.287 E20.82339
G0 F6000 X104.863 Y134.845
G1 F1200 X100.604 Y130.585 E21.02375
G0 F6000 X100.604 Y130.019
G1 F1200 X105.014 Y134.429 E21.23118
G0 F6000 X105.188 Y134.038
G1 F1200 X100.604 Y129.454 E21.4468
G0 F6000 X100.604 Y128.888
G1 F1200 X105.391 Y133.675 E21.67196
G0 F6000 X105.617 Y133.336
G1 F1200 X100.604 Y128.322 E21.90778
G0 F6000 X100.604 Y127.757
G1 F1200 X105.862 Y133.015 E22.1551
G0 F6000 X106.129 Y132.716
G1 F1200 X100.604 Y127.191 E22.41498
G0 F6000 X100.604 Y126.625
G1 F1200 X106.415 Y132.437 E22.68834
G0 F6000 X106.724 Y132.179
G1 F1200 X100.604 Y126.059 E22.9762
G0 F6000 X100.604 Y125.494
G1 F1200 X107.054 Y131.944 E23.27959
G0 F6000 X107.405 Y131.73
G1 F1200 X100.604 Y124.928 E23.59951
G0 F6000 X100.604 Y124.362
G1 F1200 X107.78 Y131.539 E23.93708
G0 F6000 X108.181 Y131.374
G1 F1200 X100.604 Y123.797 E24.29347
G0 F6000 X100.604 Y123.231
G1 F1200 X108.609 Y131.236 E24.67
G0 F6000 X109.068 Y131.129
G1 F1200 X100.604 Y122.665 E25.06813
G0 F6000 X100.604 Y122.1
G1 F1200 X109.564 Y131.06 E25.48958
G0 F6000 X110.111 Y131.042
G1 F1200 X100.604 Y121.534 E25.93678
G0 F6000 X100.604 Y120.968
G1 F1200 X110.713 Y131.078 E26.4123
G0 F6000 X111.4 Y131.199
G1 F1200 X100.604 Y120.403 E26.92011
G0 F6000 X100.604 Y119.837
G1 F1200 X112.268 Y131.501 E27.46875
G0 F6000 X112.07 Y131.918
G0 X113.305 Y133.056
G0 X114.629 Y134.464
G0 X115.052 Y134.285
G1 F1200 X119.529 Y138.762 E27.67933
G0 F6000 X119.529 Y139.328
G1 F1200 X115.35 Y135.149 E27.8759
G0 F6000 X115.48 Y135.845
G1 F1200 X119.529 Y139.893 E28.06633
G0 F6000 X119.529 Y140.459
G1 F1200 X115.521 Y136.451 E28.25485
G0 F6000 X115.5 Y136.996
G1 F1200 X119.458 Y140.954 E28.44103
G0 F6000 X118.892 Y140.954
G1 F1200 X115.429 Y137.491 E28.60392
G0 F6000 X115.323 Y137.951
G1 F1200 X118.327 Y140.954 E28.74519
G0 F6000 X117.761 Y140.954
G1 F1200 X115.187 Y138.38 E28.86626
G0 F6000 X115.019 Y138.777
G1 F1200 X117.195 Y140.954 E28.96864
G0 F6000 X116.629 Y140.954
G1 F1200 X114.83 Y139.154 E29.05328
G0 F6000 X114.618 Y139.509
G1 F1200 X116.064 Y140.954 E29.12127
G0 F6000 X115.498 Y140.954
G1 F1200 X114.382 Y139.838 E29.17377
G0 F6000 X114.124 Y140.146
G1 F1200 X114.932 Y140.954 E29.21177
G0 F6000 X114.367 Y140.954
G1 F1200 X113.847 Y140.434 E29.23623
G0 F6000 X113.547 Y140.7
G1 F1200 X113.801 Y140.954 E29.24818
G0 F6000 X113.8 Y141.415
G0 X119.916 Y141.345
G0 X119.988 Y138.196
G0 X119.529 Y138.196
G1 F1200 X108.361 Y127.028 E29.77349
G0 F6000 X109.057 Y127.159
